X:1
T:Islamey: An Oriental Fantasy
T:Islamey
T:Mily Balakirev
T: An Oriental Fantasy
%%score { ( 1 3 6 ) | ( 2 4 5 ) }
L:1/8
Q:1/4=134
M:12/16
K:Db
V:1 treble nm="Piano" snm="Pno."
V:3 treble 
V:6 treble 
V:2 bass 
V:4 bass 
V:5 bass 
V:1
"^Allegro agitato" z6 | z6 | z6 | z6 | z6 | z6 | z6 | z6 | %8
!f![I:staff +1] B/[I:staff -1]B/B/ B/ x/ B/ x/ G/ x/ B/_d/c/ | %9
[I:staff +1] A/[I:staff -1]A/A/ A/ x/ G/ x/ B/ x/ !>!F3/2 | %10
!p![I:staff +1] B/[I:staff -1]B/B/ B/ x/ B/ x/ G/ x/ B/_d/c/ | %11
[I:staff +1] A/[I:staff -1]A/A/ A/ x/ G/ x/ B/ x/ !>!F3/2 | %12
 z/!<(! G/ z/ B/ z/!<)!!ff! _d/ z/!>(! e/d/c!>)!!f!B/- | B/A/ z/ dc/B/_A/B/ !>!F3/2 | %14
!p! x/!<(! G/ x/ B/ x/!<)!!mf! _d/ z/!>(! e/d/c!>)!!p!B/- | B/A/ z/ dc/B/_A/B/ !>!F3/2 | %16
 F/ x/ F/F/ x/ F/F/ x/ F/F/ x/ F/ |!<(! E/ x/!<)!!p! E/!>(!E/ x/!>)!!pp! E/E/ x/ E/E/ x/ E/ | %18
F/ x/ F/F/ x/ F/F/ x/ F/F/ x/!<(! F/ |E/!<)!!p! x/!>(! E/E/!>)!!pp! x/ E/E/ x/ E/E/ x/ E/ | %20
 x2 F x/ F/ x F | x/ E x/ E x/ E/ x E | x2 F x/ F/ x F | x/ E x/ E x/ E/ x x | %24
!f! B/B/B/ B/ x/ B/ x/ G/ x/ B/_d/=c/ | A/A/A/ A/ x/ G/ x/ B/A/ x3/2 | %26
!p! __b/b/b/ b/ x/ b/ x/ g/ x/ b/_d'/c'/ | a/a/a/ a/ x/ g/ x/ __b/a/ x3/2 | %28
!f! x/!<(! G/ x/ B/ x/!<)!!ff! _d/!>(! z/ e/d/c!>)!!f!B/- | B/A/ z/ dc/B/_A/B/ !>!F3/2 || %30
[K:E]!p! x/!<(! f/ x/ a/ x/!<)!!mp! ^c'/!>(! z/ d'/c'/^b!>)!!p!a/- |x/g/ z/ c'b/a/g/a/ !>!e3/2 | %32
!f![I:staff +1] [=D,F,]/[I:staff -1][A,=D]/[FA]/[I:staff +1] f/[I:staff -1][C^E]/[DF]/ x3/2 F/A/G/ | %33
[I:staff +1] G,/[I:staff -1][^B,D]/[F^B]/[I:staff +1] f/[I:staff -1][B,D]/[CE]/[I:staff +1] [DF]/[I:staff -1][EG]/[DF]/ x3/2 | %34
!p![I:staff +1] [=DF]/[I:staff -1][A=d]/[fa]/[I:staff +1] f'/[I:staff -1][c^e]/[df]/[I:staff +1] [^Ac]/[I:staff -1][Bd]/[I:staff +1][c^e]/[I:staff -1] f/a/g/ | %35
[I:staff +1] [DG]/[I:staff -1][^Bd]/[f^b]/[I:staff +1] f'/[I:staff -1][Bd]/[ce]/[I:staff +1] [df]/[I:staff -1][eg]/[df]/ x3/2 | %36
!f![I:staff +1] A,/[I:staff -1][A,=D]/[CE]/[I:staff +1] D/[I:staff -1][DF]/[EG]/[I:staff +1] F/[I:staff -1][FA]/[EG]/[I:staff +1] D/[I:staff -1][DF]/[CE]/ | %37
[I:staff +1] B,/[I:staff -1][^B,G]/[D^A]/[I:staff +1] G/[I:staff -1][G^B]/[Ac]/[I:staff +1] ^B/[I:staff -1][Bd]/[ce]/ x3/2 | %38
!mf![I:staff +1] A/[I:staff -1][A=d]/[ce]/[I:staff +1] d/[I:staff -1][df]/[eg]/[I:staff +1] f/[I:staff -1][fa]/[eg]/[I:staff +1] d/[I:staff -1][df]/[ce]/ | %39
[I:staff +1] ^B/[I:staff -1][^Bg]/[d^a]/[I:staff +1] g/[I:staff -1][g^b]/[ac']/[I:staff +1] ^b/[I:staff -1][bd']/[c'e']/ x3/2 | %40
!p![I:staff +1] a/[I:staff -1][a=d']/[c'e']/[I:staff +1] d'/[I:staff -1][d'f']/[e'g']/[I:staff +1] f'/[I:staff -1][f'a']/[e'g']/[d'f']/[c'e']/[bd']/- | %41
!<(! [bd']/[^ac']/[b=d']/-[bd']/[=c'_e']/[^c'=e']/-[c'e']/[d'=f']/[_e'^f']/-[e'f']/!8va(![=e'=g']/[=f'^g']/- | %42
 [f'g']/[^f'a']/[=g'_b']/-[g'b']/[^g'=b']/[a'=c'']/[_b'^c'']/[=b'=d'']/!<)!!ff![=c''_e'']/ [d''=e'']!8va)! z/ | %43
 z6 ||[K:Db]!p! CC/ B,C/ DE/ CD/ | B,A,/ DC/ B,C/ DD/ | CC/ B,C/ DE/ CD/ | B,A,/ DC/ B,C/ DE/ | %48
 FF/ EF/ GA/ FG/ | ED/ GF/ EF/ GG/ | =GG/ FG/ AB/ GA/ |!<(! F=E/ A=G/ F[EG]/ [FA]!<)!!mp![GB]/ | %52
!p![I:staff +1] A,,/[I:staff -1][CE_Gc]/[I:staff +1]D/[I:staff -1] [CEGc]/[I:staff +1]B,/[I:staff -1][CEGc]/[I:staff +1] D/[I:staff -1]!>![EGe]/[I:staff +1]D/[I:staff -1] [CEGc]/[I:staff +1]D/[I:staff -1][CEGc]/ | %53
[I:staff +1] A,,/[I:staff -1][B,DFB]/[I:staff +1]A,/[I:staff -1] [DFAd]/[I:staff +1]C/[I:staff -1][DFAd]/[I:staff +1] =A,/[I:staff -1][B,_F=GB]/[I:staff +1]C/[I:staff -1] [DFGd]/[I:staff +1]C/[I:staff -1][B,FGB]/ | %54
"^cresc."[I:staff +1] A,,/[I:staff -1][CE_Gc]/[I:staff +1]D/[I:staff -1] [CEGc]/[I:staff +1]B,/[I:staff -1][CEGc]/[I:staff +1] D/[I:staff -1]!>![EGe]/[I:staff +1]D/[I:staff -1] [CEGc]/[I:staff +1]D/[I:staff -1][CEGc]/ | %55
[I:staff +1] A,,/[I:staff -1][B,DFB]/[I:staff +1]A,/[I:staff -1] [DFAd]/[I:staff +1]C/[I:staff -1][DFAd]/[I:staff +1] =A,/[I:staff -1]!>![B,=E=GB]/[I:staff +1]C/[I:staff -1] [DFd]/[I:staff +1]C/[I:staff -1][B,_GB]/ | %56
[I:staff +1] _C/[I:staff -1][FA_cf]/[I:staff +1]G/[I:staff -1] [FAcf]/[I:staff +1]E/[I:staff -1][FAcf]/[I:staff +1] G/[I:staff -1]!>![Aca]/[I:staff +1]G/[I:staff -1] [FAcf]/[I:staff +1]G/[I:staff -1][FAcf]/ | %57
[I:staff +1] B,/[I:staff -1][EGBe]/[I:staff +1]D/[I:staff -1] [GBdg]/[I:staff +1]F/[I:staff -1][GBdg]/[I:staff +1] =D/[I:staff -1]!>![EGBe]/[I:staff +1]F/[I:staff -1] [GBg]/[I:staff +1]F/[I:staff -1][EGBe]/ | %58
[I:staff +1] B,/[I:staff -1][=GBd=g]/[I:staff +1]A/[I:staff -1] [GBdg]/[I:staff +1]F/[I:staff -1][GBdg]/[I:staff +1] A/[I:staff -1]!>![Bdb]/[I:staff +1]A/[I:staff -1] [GBdg]/[I:staff +1]A/[I:staff -1][GBdg]/ | %59
[I:staff +1] B,/[I:staff -1][FBdf]/[I:staff +1]=E/[I:staff -1] [ABda]/[I:staff +1]=G/[I:staff -1][ABda]/[I:staff +1] E/[I:staff -1][FBdf]/[I:staff +1]_G/[I:staff -1] [=Gdf=g]/[I:staff +1]A/[I:staff -1][=Adf=a]/ | %60
!ff![I:staff +1] G,/[I:staff -1][B,D]/[GB]/[I:staff +1] b/[I:staff -1][F=A]/[GB]/[I:staff +1] [=DF]/[I:staff -1][EG]/[I:staff +1][F=A]/[I:staff -1] B/d/c/ | %61
[I:staff +1] F,/[I:staff -1][A,D]/[FA]/[I:staff +1] a/[I:staff -1][DF]/[EG]/[I:staff +1] [FA]/[I:staff -1][GB]/[FA]/ x3/2 | %62
[I:staff +1] G/[I:staff -1][Bd]/[gb]/[I:staff +1] [g'b']/[I:staff -1][f=a]/[gb]/[I:staff +1] [=df]/[I:staff -1][eg]/[I:staff +1][f=a]/[I:staff -1] b/d'/c'/ | %63
[I:staff +1] F/[I:staff -1][Ad]/[fa]/[I:staff +1] !>![f'a']/[I:staff -1][df]/[eg]/[I:staff +1] [fa]/[I:staff -1][gb]/[fa]/ x3/2 | %64
!fff! z/ [GBeg]/[Aa]/-[Aa]/[=Aeg=a]/[Bb]/!^![ege']/[__e__e']/[dd']/[cc']/[_c_c']/[Bb]/ | %65
 [__Bf__b]/[Aa]/[dd']/-[dd']/[cgc']/[_c_c']/[_B_b]/[Aa]/[Bb]/ !>![FA=df]3/2 | %66
!8va(! z/ [gbe'g']/[aa']/-[aa']/[=ae'g'=a']/[bb']/!^![e'g'e'']/[__e'__e'']/[d'd'']/[c'c'']/[_c'_c'']/[bb']/ | %67
 [__bf'__b']/[aa']/[d'd'']/-[d'd'']/[c'g'c'']/[_c'_c'']/[_b_b']/[aa']/[bb']/ !>![fa=d'f']3/2!8va)! | %68
[K:bass]!p! x/ G,/ x/!<(! B,/ x/ _D/ z/!<)!!mp! E/!>(!D/C!>)!!p!B,/ | %69
 x/!<(! A,/ x/ C/ x/ _E/ z/!<)!!mp! F/!>(!E/D!>)!!p!C/ | %70
 x/!<(! B,/ x/ D/ x/ F/[K:treble] z/!<)!!mp! G/!>(!F/E!>)!!p!D/ | z/ A/G/FE/ z/ _B/A/GF/ | %72
!p!"_cresc." x/ G/ x/ B/ x/ _d/ z/ e/d/cB/ | x/ A/ x/ c/ x/ _e/ z/ f/e/dc/ | %74
 x/ B/ x/ d/ x/ f/ z/ g/f/ed/ | z/ a/g/fe/ z/ _b/a/gf/ || %76
[K:A]!ff! x/ f/ x/ [fd'f']/[^ec'^e']/[fd'f']/ [c^ac']/[dbd']/[ee']/[fd'f']/[=af'=a']/[g=e'g']/ | %77
 x/ e/ x/ [ec'e']/[cac']/[dbd']/ [ec'e']/[ff']/[ee']<!>![cac'] | %78
!p! x/ F/!<(! x/ A/ x/ d/!<)!!mp! z/ _e/_d/!>(!=c!>)!!p!_B/ | B/_A/ z/ _d=c/_B/_A/B/ !>!=F3/2 | %80
!ff!!8va(! x/ ^f'/ x/ [f'd''f'']/[^e'c''^e'']/[f'd''f'']/ [c'^a'c'']/[d'b'd'']/[e'e'']/[f'd''f'']/[=a'f''=a'']/[g'=e''g'']/ | %81
 x/ e'/ x/ [e'c''e'']/[c'a'c'']/[d'b'd'']/ [e'c''e'']/[f'f'']/[e'e'']<!>![c'a'c'']!8va)! || %82
[M:3/8]!p! x/!<(! f/ x/ a/ x/ d'/!<)! ||[K:Db]!mp! z/ e'/d'/!>(!c'!p!b/-!>)! || %84
[M:12/16] b/a/ z/ !>!d'c'/b/_a/b/ !>!f3/2 | b'/a'/b'<!>!f' B/A/B<!>!F |!ff! z2 z !^![dad']3- | %87
[Q:1/4=67] !fermata![dad']6 ||!p![Q:1/4=80]"^Tranquillo" D6-[Q:1/4=122][Q:1/4=80] | D3 =D3 | %90
[Q:1/4=72] =E6- |!pp! [B,E]3[Q:1/4=60] ^E3 || %92
[K:D][M:6/8][Q:1/4=86]"^Andantino espressivo"!p! z2 F EFD- | D2 A A2 B |{/AB} A>GF EFD | %95
 D2 F F2 E | E2 C D>CB, | z2 F F2 E | E2 C!>(! D>C[Q:1/4=60]B, | %99
 [B,B] z!>)!!pp![Q:1/4=86] .A, B,3 |[Q:1/4=40] z6[Q:1/4=92] | z2 z z2!pp! [DGA]- | %102
 [DGA]2!p! z z2 z | z2 z z2!pp! [DGA]- | [DGA]2!p! A, C>[Q:1/4=80]"^poco riten."DE | %105
 C[Q:1/4=74]B,A, B,3- |[Q:1/4=60] B,2!pp! [FB] [E^Gd]3- | %107
 [EGd]2 [E=Ge]- [EGe]2 !arpeggio![xCGA^e] |[Q:1/4=86]!mp! x3 a3- | a2 x{/dfd'ad'-} d'3 | %110
{/ad'-b'} d'3 a3 | x3 ^a3- | a z2 f3 | x3 ^a3- | a z2 f3 | z2!<(! [Afa] [Bfb]3!<)! | %116
!mp! [cfc'] z!mp! [^Ac]- [Ac]2 [^Gc]- | [Gc]2 [Bc]- [Bc]2 [^GBc] | z2 [^Ac]- [Ac]2 [^Gc] | %119
 z2 [^EBc] z2 [FBc]- | [FBc]2 [^GBc][Q:1/4=80]"_poco riten." z2 z | ^E[Q:1/4=70]^DC D3- | %122
[Q:1/4=62] D2 ^D !arpeggio![F,^A,F]2 x | z2 z z2[Q:1/4=60] !arpeggio![B,FB] | %124
[Q:1/4=86]"^a tempo" z2 g fge- | e2 b b2 c' |{/b-c'} b>ag fge- | e2 g g2 f | f2 d e>dc | %129
 z2 g g2 f | f2 d e>dc | z2!pp! .[GA] [GB]3 | z6[Q:1/4=92]"_poco a poco animato" | %133
 z!<(! (3x/ x/ a/ (3x/ x/!<)!!f! a'/ (3a'/!>(! x/ x/ (3a/ x/ x/ (3A/ x/!>)!!mf! x/ | z6 | %135
 z!<(! (3x/ x/ a/ (3x/ x/!<)!!f! a'/ (3a'/!>(! x/ x/ (3a/ x/ x/ (3A/ x/!>)!!mf! x/ | %136
 A, z[Q:1/4=98] !arpeggio![GA]- c>de | %137
[I:staff +1] C!<(![I:staff -1] (3x/ x/ a/ (3x/ x/!<)!!f! a'/ (3b'/ x/ x/ (3b/ x/ x/ (3B/ x/ x/ | %138
"_cresc." x (3x/ x/ B/ (3x/ x/ b/ z (3x/ x/ d/ (3x/ x/ d'/ | %139
 x (3x/ x/ e/ (3x/ x/ e'/ z (3x/ x/ ^e/ (3x/ x/ ^e'/ | %140
[Q:1/4=104]"^Poco più mosso, energico"!ff! x2 f (3:2:1e'3/2(3:2:2xf'/d' | %141
 x (3x/ x/ a/ (3x/ x/ f'/ !>!f'2 d'' | a'g'f' e'f'd' | x6!8va(! | %144
 (3f''/^a'/f'/!8va)!(3f'/f/f'/(3f/c'/f'/ (3f/c'/f'/(3f/c'/f'/(3f/c'/f'/ | %145
 z (3F/A/f/(3f/a/f'/ (3f'/a/f/(3f/a/f'/!8va(!(3f'/^a'/f''/ | x2 c' d' c' b | %147
 z .[fd'f'].[^gf'^g']{/b'} [af'a'][gg'].[ff']!8va)! | %148
 z!mp!!<(! F/4G/4^A/4B/4c/4d/4e/4f/4 g/4^a/4b/4c'/4!8va(!d'/4e'/4f'/4g'/4(5:4:5^a'/4b'/4c''/4d''/4e''/4!<)! | %149
!ff! !>!f'' .[fd'f'].[^gf'^g']{/a'-} [af'a'][gg'].[ff']!8va)! | %150
 z!mp!!<(! F/4G/4^A/4B/4c/4d/4e/4f/4 g/4^a/4b/4c'/4(5:4:5d/4e/4f/4g/4^a/4(5:4:5b/4c'/4d'/4e'/4!<)!!ff!!>!f'/4 || %151
[K:Gb]!ff! z!8va(! .[bg'b'].[=c'b'=c'']{/e''} [d'b'd''][c'c''].[bb']!8va)! | %152
 z!mp! B/4!<(!c/4=d/4e/4f/4g/4a/4=a/4 b/4c'/4=c'/4d'/4=d'/4e'/4_f'/4=f'/4g'/4=g'/4a'/4=a'/4!<)! | %153
!ff! !^![be'b']!f! x/!<(! [Bgb]/x/[=cg=c']/x/!<)![dgd']/!ff!x/!>(![cgc']/x/!f![Bgb]/!>)! | %154
!f!!8va(! !^![=c'=e'b'=c'']!8va)!!<(! x/ [Aa]/x/[c_c']/x/[dd']/x/[=e_e']/ x!<)! || %155
[K:Bb][M:12/16]!ff![Q:1/4=134]"^Tempo I"!8va(! [f'a'f''] z/[I:staff +1] f''/[I:staff -1]f'/f''/!8va)![I:staff +1] f/[I:staff -1]f/f'/[I:staff +1] F/[I:staff -1]F/f/ | %156
[K:bass][I:staff +1] F,/[I:staff -1]F,/F/[I:staff +1] !>!F,,/[I:staff -1]F,,/F,/[I:staff +1] !>![F,,,F,,]/[I:staff -1]F,/F/[I:staff +1] F/[I:staff -1][K:treble]F/^F/ | %157
 G/G/G/ G/ x/ G/ x/ E/ x/ G/_B/A/ | F/F/F/ F/ x/ E/ x/ G/F/ x3/2 | %159
!p! _g'/g'/g'/ g'/ x/ g'/ x/ e'/ x/ g'/_b'/a'/ | f'/f'/f'/ f'/ x/ e'/ x/ _g'/f'/ x3/2 | %161
!f! x/ e/ x/ g/ x/ _b/ x/ c'/b/ag/ | x/ f/ x/ b_a/_g/f/g/ !>!_d3/2 | %163
!pp! x/ _c'/ z/ e'/ x/ _g'/ z/ _a'/g'/f'e'/ | %164
 x/[Q:1/4=124]"_poco ritenuto" _d'/ x/ ^f'[Q:1/4=114]=e'/=d'/=c'/^d'/[Q:1/4=104] z3/2 || %165
[K:D]!f![Q:1/4=134]"^a tempo energico"[I:staff +1] G,/[I:staff -1][B,D]/[GB]/[I:staff +1] b/[I:staff -1][F^A]/[GB]/[I:staff +1] [^DF]/[I:staff -1][EG]/[I:staff +1][F^A]/[I:staff -1] B/d/c/ | %166
[I:staff +1] F,/[I:staff -1][A,D]/[FA]/[I:staff +1] a/[I:staff -1][DF]/[EG]/[I:staff +1] [FA]/[I:staff -1][GB]/[FA]/ x3/2 | %167
!p![I:staff +1] G/[I:staff -1][Bd]/[gb]/[I:staff +1] !>![g'b']/[I:staff -1][f^a]/[gb]/[I:staff +1] [^df]/[I:staff -1][eg]/[I:staff +1][f^a]/[I:staff -1] b/d'/c'/ | %168
[I:staff +1] !>!F/[I:staff -1][Ad]/[fa]/[I:staff +1] a'/[I:staff -1][df]/[eg]/[I:staff +1] [fa]/[I:staff -1][gb]/[fa]/ x3/2 | %169
 F/!<(!G/^A/B/c/!<)!!f!=d/ ^d/!>(!e/=d/c!>)!!mf!B/- | B/A/ z/ !>!dc/B/=A/B/ !>!F3/2 | %171
!<(! f/g/^a/b/c'/=d'/ x/ d'/ x/ g'/ x/!<)!!f! _b'/ | %172
 x/!f! _b'/ x/!>(! b'/ x/ b'/ x/ b'/ x/ b'/ x/ b'/ | %173
 x/ _b'/ x/ b'/ x/ b'/ x/ b'/ x/!>)!!p! b'/ x/ b'/ | %174
!pp! x/ _b'/ x/ b'/ x/ b'/ x/ b'/ x/ b'/ x/ b'/ | x/ _b'/ x/ b'/ x/ b'/ x/ b'/ x/ b'/ x/ b'/ || %176
[K:Db]!ppp! x/ b'/ x/ b'/ x/ b'/ x/ b'/ x/ b'/ x/ b'/ | x/ b'/ x/ b'/ x/ b'/ x/ b'/ x/ b'/ x/ b'/ | %178
!pp! x/ __b'/ x/ g'/ x/ e'/ x/ c'/ x/ __b/ x/ g/ | x/ e/ x/ c/ x/ __B/ x/ G/[K:bass] x/ E/ x/ C/ | %180
 x/ __B,/ x/ G,/ x/ E,/ x/ C,/ x/ __B,,/ x/ G,,/ | z6 | z6 |!p! CC/B,/C/A,/ z E/ CF/ | %184
 E/D/C/B,/C/_A,/ z C/ CB,/ | B,=G,/A,/G,/F,/ z C/ CB,/ | %186
 B,_G,/A,/G,/F,/[K:treble]"_cresc." FF/E/F/D/ | z A/ AB/ A/_G/F/E/F/_D/ | z F/ FE/EC/D/C/B,/ | %189
 z F/ FE/EC/D/C/B,/ |!f! [__EG_c__e][Ee]/[Dd]/[Ee]/[_Cc]/ z [Gg]/ [Gg][Aa]/ | %191
 [Gg]/[_F_f]/[__E__e]/[Dd]/[Ee]/[_C_c]/ z [Ee]/ [Ee][Dd]/ | [=CEGA=c] z z [A,CGA] z/ .[Acga] z/ | %193
 .[ac'g'a']!8va(! z/ .[a'c''g''a'']!8va)! z/ G3/2 x/ x |!ff! x3/2 g3/2 z x/ _c'3/2- | %195
 c'3/2 g3/2 x3/2 [g_c']3/2 | .[=cega=c'] [Cc]/ [B,B]/[Cc]/[A,A]/ .[Aega] z/ .[ac'g'a'] z/ | %197
!8va(! .[a'c''g''a''] z/ .[ae'g'a']!8va)! z/ !^![Bb]/[cc']/[Aa]/[Q:1/4=60]"_riten." x3/2 | %198
!p![Q:1/4=134]"^Tranquillo Tempo I"[I:staff +1] A,,/[I:staff -1][CEGc]/[I:staff +1]D/[I:staff -1] [CEGc]/[I:staff +1]B,/[I:staff -1][CEGc]/[I:staff +1] D/[I:staff -1][EGe]/[I:staff +1]D/[I:staff -1] [CEGc]/[I:staff +1]D/[I:staff -1][CEGc]/ | %199
[I:staff +1] A,,/[I:staff -1][B,DFB]/[I:staff +1]A,/[I:staff -1] [DFAd]/[I:staff +1]C/[I:staff -1][DFAd]/[I:staff +1] =A,/[I:staff -1][B,_F=GB]/[I:staff +1]C/[I:staff -1] [DFGd]/[I:staff +1]C/[I:staff -1][B,FGB]/ | %200
[I:staff +1] A,,/[I:staff -1][CEGc]/[I:staff +1]D/[I:staff -1] [CEGc]/[I:staff +1]B,/[I:staff -1][CEGc]/[I:staff +1] D/[I:staff -1][EGe]/[I:staff +1]D/[I:staff -1] [CEGc]/[I:staff +1]D/[I:staff -1][CEGc]/ | %201
[I:staff +1] A,,/[I:staff -1][B,DFB]/[I:staff +1]A,/[I:staff -1] [DFAd]/[I:staff +1]C/[I:staff -1][DFAd]/[I:staff +1] =A,/[I:staff -1][B,=E=GB]/[I:staff +1]C/[I:staff -1] [DFd]/[I:staff +1]C/[I:staff -1][B,_GB]/ | %202
"^cresc."[I:staff +1] _C/[I:staff -1][FA_cf]/[I:staff +1]G/[I:staff -1] [FAcf]/[I:staff +1]E/[I:staff -1][FAcf]/[I:staff +1] G/[I:staff -1][Aca]/[I:staff +1]G/[I:staff -1] [FAcf]/[I:staff +1]E/[I:staff -1][FAcf]/ | %203
[I:staff +1] B,/[I:staff -1][EGBe]/[I:staff +1]D/[I:staff -1] [GBdg]/[I:staff +1]F/[I:staff -1][GBdg]/[I:staff +1] =D/[I:staff -1][EGBe]/[I:staff +1]F/[I:staff -1] [GBg]/[I:staff +1]F/[I:staff -1][EGBf]/ | %204
[I:staff +1] B,/[I:staff -1][=GBd=g]/[I:staff +1]A/[I:staff -1] [GBdg]/[I:staff +1]F/[I:staff -1][GBdg]/[I:staff +1] A/[I:staff -1][Bdb]/[I:staff +1]A/[I:staff -1] [GBdg]/[I:staff +1]A/[I:staff -1][GBdg]/ | %205
[I:staff +1] B,/[I:staff -1][FBdf]/[I:staff +1]=E/[I:staff -1] [ABda]/[I:staff +1]=G/[I:staff -1][ABda]/[I:staff +1] E/[I:staff -1][FBdf]/[I:staff +1]G/[I:staff -1] [ABda]/[I:staff +1]G/[I:staff -1][FBdf]/ | %206
!f![I:staff +1] E/[I:staff -1][e=gbe']/[I:staff +1][=GB_f]/[I:staff -1] [egbe']/[I:staff +1][GBd]/[I:staff -1][egbe']/[I:staff +1] [GBf]/[I:staff -1][_gbd'_g']/[I:staff +1][GBf]/[I:staff -1] [e=gbe']/[I:staff +1][GBf]/[I:staff -1][egbe']/ | %207
[I:staff +1] _F/[I:staff -1][d_gbd']/[I:staff +1][GBc]/[I:staff -1] [_fbd'_f']/[I:staff +1][GBe]/[I:staff -1][fbd'f']/[I:staff +1] [GBc]/[I:staff -1][dgbd']/[I:staff +1][GBe]/[I:staff -1] [fbd'f']/[I:staff +1][GBe]/[I:staff -1][dgbd']/ | %208
[I:staff +1] E/[I:staff -1][e=gbe']/[I:staff +1][=GB_f]/[I:staff -1] [egbe']/[I:staff +1][GBd]/[I:staff -1][egbe']/[I:staff +1] [GBf]/[I:staff -1][_gbd'_g']/[I:staff +1][GBf]/[I:staff -1] [e=gbe']/[I:staff +1][GBf]/[I:staff -1][egbe']/ | %209
[I:staff +1] _F/[I:staff -1][d_gbd']/[I:staff +1][GBc]/[I:staff -1] [_fbd'_f']/[I:staff +1][GBe]/[I:staff -1][fbd'f']/[I:staff +1] [GBc]/[I:staff -1][dgbd']/[I:staff +1][GBe]/[I:staff -1] [fbd'f']/[I:staff +1][GBe]/[I:staff -1][dgbd']/ || %210
[K:G]!ff!!8va(! x/ [bf'a'b']/x/[bf'a'b']/ x/ [bf'a'b']/x/[=d'f'a'=d'']/ x/ [bf'a'b']/x/[bf'a'b']/!8va)! | %211
[I:staff +1] =F/[I:staff -1][Ac]/[=fa]/[I:staff +1] [^gb]/[I:staff -1][ac'a']/[I:staff +1][eg]/[I:staff -1] [fa=f']/[I:staff +1][Bd]/[I:staff -1][cfc']/ x/ a/f/ | %212
[I:staff +1] ^D/[I:staff -1][Bfab]/[I:staff +1][^DFc]/[I:staff -1] [Bfab]/[I:staff +1][DF^A]/[I:staff -1][Bfab]/[I:staff +1] [DFc]/[I:staff -1][=dfa=d']/[I:staff +1][DFc]/[I:staff -1] [Bfab]/[I:staff +1][DFc]/[I:staff -1][Bfab]/ | %213
[I:staff +1] =F/[I:staff -1][Ac]/[=fa]/[I:staff +1] [^GB]/[I:staff -1][Aca]/[I:staff +1][EG]/[I:staff -1] [=FAf]/[I:staff +1][B,D]/[I:staff -1][CFc]/ x/ A/^F/ | %214
 x6!f! | x6 | x6 | x6 || %218
[K:Db]!fff! x3/2 !^![cegb]/[I:staff +1] [F=A]/[I:staff -1][GB]/[I:staff +1] [=DF]/[I:staff -1][EG]/[I:staff +1][FA]/[I:staff -1] B/d/c/ | %219
 x3/2 !^![Adfa]/[I:staff +1] [DF]/[I:staff -1][EG]/[I:staff +1] [FA]/[I:staff -1][GB]/[FA]/ x3/2 | %220
 x/ b/ x/ !^![bd'g'b']/[I:staff +1] [=Ac]/[I:staff -1][Bdb]/[I:staff +1] [FA]/[I:staff -1][GBg]/[I:staff +1][Ac]/ [Bd]/[I:staff -1][dbd']/[c_ac']/ | %221
 x/ a/ x/ !^![ad'f'a']/[I:staff +1] [DF]/[I:staff -1][Geg]/[I:staff +1] [FA]/[I:staff -1][Bgb]/[Afa]/ x3/2 | %222
 z/ [GBeg]/[Aa]/-[Aa]/[=Aeg=a]/[Bb]/ !^![ege']/[=d=d']/[_d_d']/[cc']/[_c_c']/[Bb]/ | %223
 [__Bf__b]/[Aa]/[dd']/-[dd']/[cgc']/[_c_c']/[_B_b]/[Aa]/[Bb]/ !>![FA=df]3/2 || %224
[M:6/16] z/!8va(! [gbe'g']/[aa']/-[aa']/[=ae'g'=a']/[bb']/ || %225
[K:E] [d'^^f'd'']/[=d'=d'']/[c'c'']/[=c'=c'']/[bb']/[^a^a']/ || %226
[M:12/16] [=ae'=a']/[gg']/[c'c'']/[c'c'']/[bd'b']/[aa']/[ge'g']/[ff']/[gg']/ !>![ege']3/2!8va)! | %227
[I:staff +1] A,/[I:staff -1][CE]/[Ac]/[I:staff +1] c'/[I:staff -1][G^B]/[Ac]/[I:staff +1] [^EG]/[I:staff -1][FA]/[I:staff +1][G^B]/[I:staff -1] c/e/d/ | %228
[I:staff +1] G,/[I:staff -1][B,E]/[GB]/[I:staff +1] b/[I:staff -1][EG]/[FA]/[I:staff +1] [GB]/[I:staff -1][Ac]/[GB]/ x3/2 | %229
[I:staff +1] A/[I:staff -1][ce]/[ac']/!8va(![I:staff +1] !>![a'c'']/!8va)![I:staff -1][g^b]/[ac']/[I:staff +1] [^eg]/[I:staff -1][fa]/[I:staff +1][g^b]/[I:staff -1] c'/e'/d'/ | %230
[I:staff +1] G/[I:staff -1][Be]/[gb]/!8va(![I:staff +1] !>![g'b']/!8va)![I:staff -1][eg]/[fa]/[I:staff +1] [gb]/[I:staff -1][ac']/[gb]/[I:staff +1] !>![eg]3/2 | %231
[I:staff -1] z/ [Acfa]/[Bb]/-[Bb]/[^Bfa^b]/[cc']/ !^![faf']/[=f=f']/[ee']/[dd']/[=d=d']/[cc']/ | %232
 [=cg=c']/[Bb]/[ee']/-[ee']/[dad']/[=d=d']/[^cg^c']/[Bb]/[cc']/ !>![GB^eg]3/2 | %233
!8va(! z/ [ac'f'a']/[bb']/-[bb']/[^bf'a'^b']/[c'c'']/ !^![f'a'f'']/[=f'=f'']/[e'e'']/[d'd'']/[=d'=d'']/[c'c'']/ | %234
 [=c'g'=c'']/[bb']/[e'e'']/-[e'e'']/[d'a'd'']/[=d'=d'']/[^c'g'^c'']/[bb']/[c'c'']/ !>![gb^e'g']3/2!8va)! || %235
[K:Db]!p! x/[K:bass] G,/ x/!<(! __B,/ x/ D/ x/ E/!<)!!mp!D/!>(!C!>)!!p!_B,/ | %236
!<(! x/ A,/ x/ C/ x/ _E/ x/ F/!<)!!mp!E/!>(!D!>)!!p!C/ | %237
!<(! x/ B,/ x/ D/ x/ F/[K:treble] z/ G/!<)!!mp!F/!>(!E!>)!!p!D/ | z/ A/G/FE/ z/ _B/A/GF/ | %239
 x/"_cresc." G/ x/ __B/ x/ __e/ z/ g/_f/ed/ | x/ _c/ x/ __e/ z/ g/ z/ a/g/fe/ | %241
 x/ d/ x/ g/ x/ __b/ x/ g/ x/ _c'/ x/ __e'/ | %242
 x/ _c'/ x/ __e'/ x/ _g'/!8va(! x/ [_e'a']/ x/ [=g'=c'']/ x/ [c''e'']/!8va)! | %243
[M:2/4][Q:1/4=120]"^Allegro vivo"!ff!!8va(! [f'd''f'']!8va)! !>!f e/f/d | D !>![Ada]2 [Bdb] | %245
 d[I:staff +1] _G/[I:staff -1][Ff]/[I:staff +1]_F/[I:staff -1][Ee]/[I:staff +1]__E/[I:staff -1][Dd]/ | %246
 z !>!f2 e | e/__e/d/c/ d/c/B | z !>!A2 =A | =A/B/=B/c/ _B/c/d/f/ | %250
 b/c'/d'/f'/!8va(! b'/c''/d''/f''/!8va)! | %251
 z !arpeggio!!>![CFc]!p![I:staff +1] =E/[I:staff -1][F=Acf]/[I:staff +1] F/[I:staff -1][=G=g]/ | %252
 [=E=GB=e]/[I:staff +1]=D/[I:staff -1] [=DGB=d]/[I:staff +1]C/[I:staff -1] !^!d2 | %253
 x (3x/ x/ c/[I:staff +1] =e/[I:staff -1][f=ac'f']/[I:staff +1] f/[I:staff -1][=g=g']/ | %254
 [=e=gb=e']/[I:staff +1]=d/[I:staff -1][=dgb=d']/[I:staff +1]c/[I:staff -1] !^!d'2 | %255
!f! !arpeggio!!>![c=ac'] !^![ac'f'=a']/[I:staff +1][=G=g]/[I:staff -1] [=g=g']/[I:staff +1][Ff]/[I:staff -1] [ff']/[I:staff +1][=D=d]/ | %256
[I:staff -1] [=d=d']/[I:staff +1][Cc]/[I:staff -1] [cc']/[I:staff +1][=A,=A]/[I:staff -1] [=A=a]/[I:staff +1][=G,=G]/[I:staff -1] [=G=g]/[I:staff +1][F,F]/ | %257
[I:staff -1] [Ff]/[I:staff +1][=D,=D]/[I:staff -1] [=D=d]/[I:staff +1][C,C]/[I:staff -1] [Cc]/[I:staff +1][=A,,=A,]/[I:staff -1] [=A,=A]/[I:staff +1][=G,,=G,]/ | %258
[I:staff -1] [=G,=G]/[I:staff +1][=F,,=F,]/"^glissando"[I:staff -1] (7:4:7!>![F,F]/4[G,G]/4[=A,=A]/4[=B,=B]/4[Cc]/4[=D=d]/4[=E=e]/4(7:4:7[Ff]/4[=G=g]/4[=A=a]/4[=B=b]/4[cc']/4[=d=d']/4[=e=e']/4!8va(!(7:4:7[ff']/4[g=g']/4[a=a']/4[b=b']/4[c'c'']/4[d'=d'']/4[e'=e'']/4!8va)! | %259
!ff!!8va(! !>![f'f'']!8va)! !^![fad'f'][ee']/[ff']/[dd'] | D !>![ad'f'a']2 [bd'f'b'] | %261
 !^![ad'f'a']/[=g=g']/[_g_g']/[ff']/[_f_f']/[ee']/[__e__e']/[dd']/ | z !>![faf']2 [ege'] | %263
 !^![ege']/[=d=d']/[_d_d']/[cc']/ !^![dd']/[cc']/[_c_c']/[Bb]/ | z !>![Adfa]2 [=Acg=a] | %265
 !^![=Acg=a]/[Bb]/[=B=b]/[cc']/ !^![_Bf_b]/[cc']/[dd']/[ff']/ | z!8va(! [af'a'] !>![b_f'-b']2 | %267
 [_c'f'_c'']!8va)!!p! !arpeggio!!>![_C_F_c][I:staff +1] E/[I:staff -1][FAc_f]/[I:staff +1] _F/[I:staff -1][Gg]/ | %268
 [EG__Be]/[I:staff +1]D/[I:staff -1] [DGBd]/[I:staff +1]_C/[I:staff -1] !^!d2 | %269
 x (3x/ x/ _c/[I:staff +1] e/[I:staff -1][_fa_c'_f']/[I:staff +1] _f/[I:staff -1][gg']/ | %270
 [eg__be']/[I:staff +1]d/[I:staff -1] [dgbd']/[I:staff +1]_c/[I:staff -1] d'2 | %271
[K:bass]!f! x3/2 A,/ x2 | %272
 [C,E,G,C]/[I:staff +1]B,,/[I:staff -1] [B,,B,]/[I:staff +1]A,,/[I:staff -1] !^!B, x | %273
 x3/2 F/[I:staff +1] =A,/[I:staff -1][K:treble][B,=DFB]/[I:staff +1] B,/[I:staff -1][Cc]/ | %274
 [=A,CE=A]/[I:staff +1]=G,/[I:staff -1] [=G,=G]/[I:staff +1]F,/[I:staff -1] G x | %275
 x2[I:staff +1] C/[I:staff -1][DFAd]/[I:staff +1] D/[I:staff -1][Ee]/ | %276
 [CEGc]/[I:staff +1]B,/[I:staff -1] [B,B]/[I:staff +1]A,/[I:staff -1] B x | %277
 x3/2 f/[I:staff +1] =A/[I:staff -1][B=dfb]/[I:staff +1] B/[I:staff -1][cc']/ | %278
 [=Ace=a]/[I:staff +1]=G/[I:staff -1] [=G=g]/[I:staff +1]F/[I:staff -1] !^!g x | %279
 x3/2 a/[I:staff +1] c/[I:staff -1][dd']/[I:staff +1] d/[I:staff -1][ee']/ | %280
 !^![cegc']/[I:staff +1][B,B]/[I:staff -1][Bb]/[I:staff +1][A,A]/[I:staff -1] !^![__efa__e']/[I:staff +1][Dd]/[I:staff -1][dd']/[I:staff +1][_C_c]/ | %281
[I:staff -1] !^![_f=gb_f']/[I:staff +1][Ee]/[I:staff -1][ee']/[I:staff +1][Dd]/[I:staff -1] !^![=fa_c'=f']/[I:staff +1][Ee]/[I:staff -1][ee']/[I:staff +1][=D=d]/ | %282
!8va(![I:staff -1] !^![__bd'e'__b']/[I:staff +1]a'/[I:staff -1][aa']/[gg']/ !^![c'e'g'c'']/[I:staff +1]_b'/[I:staff -1][_b_b']/[aa']/!8va)! || %283
[Q:1/4=137]"^Presto furioso"!8va(! !^![d'f'd'']!8va)! D/D/ x D/D/ | x D/D/ x D/D/ | %285
 x/ _C/C/ x C/C/ x/ | x/ _C/C/ x C/ x | !^![dfd'] D/D/ x D/D/ | x D/D/ x D/D/ | %289
 x/ __B,/B,/ x B,/B,/ x/ | x/ __B,/B,/ x B,/ x | !^![G__B__eg] B/B/ x B/B/ | %292
 x __B/B/ x [GB]/[GB]/ | !^![_c__e__a_c'] e/e/ x e/e/ | x __e/e/ x [_ce] | %295
!mf! [F,F]>[G,G] [=G,=G]>[A,A] | [__B,__B]>[=C_c] [=C=c]>[Dd] | [__E__e]>[_F_f] [=F=f]>[Gg] | %298
 [Aa]>[Bb] [_c_c']>[=c=c'] ||[K:D]!ff! !^![_d=f_d'] x/ [^Gc]/ x/ [GB]/ x/ [Gc]/ | %300
 x/ [Fd]/ x/ [Fe]/ z/ [Fc]/ x/ [Fd]/ | x/ [EB]/[EA]/ x [Ed]/[Ec]/ x/ | x/ [EB]/[Ec]/ x [Ed]/ x | %303
 !^![c^ec'] x/ [^Gc]/ x/ [GB]/ x/ [Gc]/ | x/ [Fd]/ z/ [Fe]/ x/ [Fc]/ x/ [Fd]/ | %305
 x/ [EB]/[EA]/ x [E=c]/[EB]/ x/ | x/ [EA]/[EB]/ x [D=c]/ x | !^![Bdgb] d/d/ z d/d/ | %308
 x d/d/ x [Bd]/[Bd]/ | !^![eg=c'e'] g/g/ x g/g/ | x g/g/ x [eg] |!mf! [^A,^A]>[B,B] [^B,^B]>[Cc] | %312
 [Dd]>"_cresc."[Ed] [^E^e]>[Ff] | [^G^g]>[Aa] [^A^a]>[Bb] ||[K:Db] [cc']>[dd'] [ee']>[=e=e'] | %315
!fff! z !^![fad'f'][=e=e']/[ff']/[dd'] | z !>![b=e'b']2 [c'e'c''] | %317
 !^![ad'f'a']/[=g=g']/[_g_g']/[ff']/ [=e=e']/[ff']/[_e_e']/[dd']/ | z !>![f=af']2 [ee'] | %319
 !^![ege']/[=d=d']/[_d_d']/[cc']/ [dd']/[cc']/!>![Bgb] | z !>![b=e'b']2 [c'e'c''] | %321
 !^![ad'f'a']/[=g=g']/[_g_g']/[ff']/ [=e=e']/[ff']/[_e_e']/[dd']/ | %322
 [=G=g]/[Aa]/[_G_g]/[Ff]/ [=E=e]/[Ff]/[_E_e]/[Dd]/ |!>(! =G/A/_G/F/ =E/F/_E/D/!>)! |!p! z F2 E | %325
 E/=D/_D/C/ D/C/_C/B,/ |!p! z F2 E | E/=D/_D/C/ D/_C/B,/__B,/ | z [A,A]2 [G,G] |!<(! G x __B x | %330
 c x e x | g x c' x!<)! |!ff! f'!8va(! [a'd''f'']/x/[f'a'd'']/x/[d'f'a']/ x/!8va)! | %333
[ad'f']/x/[fad']/x/[dfa]/x/[Adf]/ x/ |[FAd]/ x/ [Adf]/x/[FAd]/x/[DFA]/ x/ | %335
[A,DF]/x/[F,A,D]/x/[I:staff +1][D,F,A,]/[I:staff -1]x/[I:staff +1][A,,D,F,]/[I:staff -1] x/ | %336
[I:staff +1][F,,A,,D,]/[I:staff -1] x/ x x2 | z4 | x4 | z4 | z2 !arpeggio![Fcf] z | %341
 !arpeggio![^c=e=a^c'] z!8va(! !^![__bd'=e'__b'] z | !^![f'_a'd''f''] z z2 | %343
 !^![d'a'd'']!8va)! z z2 |{/a__bc'} !^![dd'][I:staff +1]D,[I:staff -1] z2 | %345
[Q:1/4=68] !fermata!z4 |] %346
V:2
!f! B,/ B,/B,/ B,/ =A,/B,/ G,/ G,/A,/ B,/ D/C/ | A,/ A,/A,/ A,/ F,/G,/ A,/ B,/A,/ !>!F,3/2 | %2
!p! B,/ B,/B,/ B,/ =A,/B,/ G,/ G,/A,/ B,/ D/C/ | A,/ A,/A,/ A,/ F,/G,/ A,/ B,/A,/ !>!F,3/2 | %4
!f! G,/ G,/=A,/ B,/ B,/C/ E/ E/D/ C/ C/B,/ | A,/ A,/A,/ D/ D/C/ B,/ A,/B,/ !>!F,3/2 | %6
!p! G,/ G,/=A,/ B,/ B,/C/ E/ E/D/ C/ C/B,/ | A,/ A,/A,/ D/ D/C/ B,/ A,/B,/ !>!F,3/2 | %8
 [A,D]/ z/ z/ !>![D,A,]3 [D,,D,]/ z/ z/ | [A,D]/ z/ z/ !>![D,A,]3 !>![D,,D,]/ z/ z/ | %10
 [A,D]/ z/ z/ !>![D,A,]3 [D,,D,]/ z/ z/ | [A,D]/ z/ z/ !>![D,A,]3 [D,,D,]/ z/ z/ | %12
!f! [D,G,B,]3/2[D,,D,]3/2 [A,EG]3/2[D,,D,]3/2 | [D,A,D]/ z/ z/ [D-EG]>[DF] z/ z/ !>![D,A,_C]3/2 | %14
 [D,G,B,]3/2[D,,D,]3/2 [A,EG]3/2[D,,D,]3/2 | [D,A,D]/ z/ z/ [DEG]>[DF] z/ z/ !>![B,,=G,]3/2 | %16
!pp! [F,,F,]/ F,/ x F,/ x/ x/ F,/ x/ x/ F,/ x/ | x/ E,/ x E,/ x E,/ x E,/ x/ | %18
 x/ F,/ x F,/ x F,/ x F,/ x/ | x/ E,/ x E,/ x E,/ x E,/ x/ |!pp! F,/"_cresc." x F,/ x F,/ x F, x/ | %21
 E,/ x E,/ x E,/ x E, x/ | F,!>![F,,F,]/ F,!>![F,,F,]/ F,!>![F,,F,]/ F,!>![F,,F,]/ | %23
 E,!>![E,,E,]/ E,!>![E,,E,]/ E,!>![E,,E,]/ [E,__B,]3/2 | %24
!f! D/G,/E,/A,,/[I:staff -1]=D/[I:staff +1]E/[I:staff -1] _C/[I:staff +1]B,/A,/G,/B,/A,/ | %25
 D/A,/F,/A,,/F,/A,/D/D,/A,/ !>!F3/2 | %26
[K:treble] d/G/E/A,/[I:staff -1]=d/[I:staff +1]e/[I:staff -1] _c/[I:staff +1]__B/A/G/B/A/ | %27
 d/A/_F/A,/F/A/d/D/A/ !>!_f3/2 |[K:bass] [A,_C]/[G,B,]/[F,A,]<[E,G,] =G,/A,/=A,/B,/=B,/C/ | %29
 D3/2E3/2F3/2 !>![A,_C]3/2 ||[K:E][K:treble] [GB]/[FA]/[^EG]<[DF] ^^F/G/A/^A/B/^B/ | %31
 c3/2=d3/2c3/2 !>![Ec]3/2 | %32
[K:bass] !>![F,,A,,D,]/ x[K:treble] d/ x[K:bass] [^A,C]/[I:staff -1][B,D]/[I:staff +1][C^E]/ x3/2 | %33
 !>![G,,D,G,]/ x[K:treble] d/ x[K:bass] x3/2 !>![^B,D]3/2 | [F,A,D]/ x[K:treble] =d'/ x x3/2 x3/2 | %35
[K:bass] [G,D]/ x[K:treble] d'/ x2 x/ !>![^df]3/2 | %36
[K:bass] !arpeggio!!>![F,,=D,A,]/ x !arpeggio![D,A,D]/ x D/ x A,/ x | %37
 !arpeggio!!>![F,,D,B,]/ x !arpeggio![G,DG]/ x[K:treble] G/ x !>![df]3/2 | %38
 !arpeggio![F,=DA]/ x !arpeggio![DAd]/ x d/ x [Ad]/ x | %39
 !arpeggio![G,DB]/ x !arpeggio![Gdg]/ x g/ x !>![d'f']3/2 | %40
 !arpeggio![F=da]/ x !arpeggio![dad']/ x d'/ x x3/2 | %41
 [e=g]/x/[=f^g]/[^fa]/x/[=gb]/[^g=b]/z/[a=c']/[_b^c']/x/[=b=d']/ | %42
 [=c'_e']/z/[^c'=e']/[=d'=f']/z/[_e'^f']/[=e'=g']/[=f'^g']/[^f'a']/!ped! [=g'_b'] z/ | %43
 z6!ped-up! ||[K:Db][K:bass] G,,/A,,/A,/-A,/A,,/G,,/-G,,/A,,/A,/-A,/A,,/G,,/ | %45
 F,,/A,,/A,/-A,/A,,/F,,/-F,,/A,,/A,/-A,/A,,/_F,,/ | %46
 E,,/A,,/A,/-A,/A,,/E,,/-E,,/A,,/A,/-A,/A,,/E,,/ | %47
 D,,/A,,/A,/-A,/=A,/=A,,/D,,/B,,/B,/-B,/B,,/D,,/ | D,,/A,,/D/-D/D,/_C,/-C,/D,/_C/-C/D,/C,/ | %49
 B,,/D,/B,/-B,/=D,/B,,/-B,,/E,/B,/-B,/E,/B,,/- | B,,/=E,/B,/-B,/E,/B,,/-B,,/E,/B,/-B,/E,/B,,/- | %51
 B,,/F,/B,/-B,/F,/B,,/-B,,/F,/B,/-B,/_F,/[B,,E,]/ | !>![D,,A,,]6 | !>![D,,A,,]6 | !>![D,,A,,]6 | %55
 !>![D,,A,,]6 | !>![D,A,_C]6 | !>![D,G,B,]6 | !>![D,=E,B,]6 | [D,F,B,]6 | %60
 [A,,D,G,]/ x[K:treble] !>![gb]/ x2 x/[I:staff -1] G_A/ | %61
[I:staff +1][K:bass] [A,,D,F,]/ z[K:treble] !>!f/ x x3/2 !>![DF]3/2 | %62
 [A,DG]/ x3/2 x2 x/[I:staff -1] g_a/ |[I:staff +1] [A,DF]/ x3/2 x2 x/ !>![df]3/2 | %64
[K:bass]!fff! [G,B,E]3/4x3/4[G,B,E]3/4 x3/4 !^![A,CG]3/4x3/4[A,CG]3/4 x3/4 | %65
 [A,DF]3/4x3/4[=A,EG]3/4x3/4[B,DF]3/4 x3/4 !>![_A,_C=D]3/2 | %66
 [G,B,E]3/4x3/4[G,B,E]3/4 x3/4 !^![A,CG]3/4x3/4[A,CG]3/4 x3/4 | %67
 [A,DF]3/4x3/4[=A,EG]3/4x3/4[B,DF]3/4 x3/4[K:treble] !>![_C=D_A_c]3/2 | %68
[K:bass] D,,/A,,/D,,/A,,/D,,/A,,/ D,,/A,,/D,/A,/D,/A,,/ | %69
 D,,/A,,/D,,/A,,/D,,/A,,/ D,,/A,,/D,/A,/D,/A,,/ | D,,/A,,/D,,/A,,/D,,/A,,/ D,,/A,,/D,/A,/D,/A,,/ | %71
 D,,/A,,/D,,/A,,/D,,/A,,/ D,,/A,,/D,/A,/D,/A,,/ |!mp!"_cresc." D,, !^!G,!^!E, D,, !^!A,!^!C | %73
 D,, !^!A,!^!F, D,, !^!B,!^!D | D,, !^!B,!^!G, D,, !^!E!^!G | D,, !^!B,!^!C D,, !^!C!^!D || %76
[K:A]!ff! [D,F,A,D]3/2[C,,C,]3/2 [G,DF]3/2[C,,C,]3/2 | [A,CE]3/2[C,,C,]3/2 [G,CEG]3/2[A,CE=G]3/2 | %78
 [=G,_B,]/[F,A,]/[E,G,]<[D,F,] G,/_A,/=A,/_B,/=B,/=C/ | _D3/2_E3/2=F3/2 _C3/2 | %80
 [^F,=A,=D^F]3/2[C,,C,]3/2 [G,DFG]3/2[C,,C,]3/2 | [A,CEA]3/2[C,,C,]3/2 [G,CEG]3/2[A,CE=G]3/2 || %82
[M:3/8][K:treble] [=G_B]/[FA]/[EG]<[DF] ||[K:Db] =G/A/=A/B/=B/c/ || %84
[M:12/16] d3/2!>!e3/2f3/2 !>!=A3/2 | [gb]3/2!>![da]3/2[K:bass] [B,F]3/2!>![=G,B,]3/2 | %86
 F,/E,/F,<!ped!!^!D,- D,3- | !fermata!D,6!ped-up! || D,6- | D,3 =D,3 | =D,6 | %91
 D,3!ped! x3!ped-up! ||[K:D][M:6/8]!ped! D,,, z z!ped-up! [D,,F,]3- | [D,,F,]6- | %94
 [D,,F,]3 [D,,F,]3- |!ped! [D,,F,]3!ped-up! [D,,F,]3- | [D,,F,]3 [D,,F,]3 | %97
!ped! D,,, z z!ped-up! [D,,F,]3- | [D,,F,]3 [D,,F,]3- |!ped! [D,,F,] z!ped-up! .A,, B,,3 | %100
!ped! A,, z[K:treble]!pp! [CG-A-]!ped-up! [GA]2 [GA]- | [GA]2 [CGA] z2[K:bass]!p! [D,,A,,] | %102
!ped! [D,,,D,,] z[K:treble]!pp! [CG-A-]!ped-up! [GA]2 [GA]- | [GA]2 [CGA] z2[K:bass]!p! [D,,A,,] | %104
!ped![D,,,D,,] z[K:treble]!pp! [DGA]!ped-up! z2 z |[K:bass] z2 E, F,3- | F,2 [B,D] [B,D]3- | %107
 [B,D]2 [_B,D]- [B,D]2!ped! !arpeggio![A,,G,A,]!ped-up! |!p!!ped! z FF!ped-up!!ped! FFF!ped-up! | %109
!ped! z FF!ped-up!!ped! FFF!ped-up! |!ped! z FF!ped-up!!ped! FFF!ped-up! | %111
!ped! x FF!ped-up!!ped! FFF-!ped-up! |!ped! F FF!ped-up!!ped! FFF!ped-up! | %113
!ped! x FF!ped-up!!ped! FFF-!ped-up! |!ped! F FF!ped-up!!ped! FFF!ped-up! | %115
!ped! x FF!ped-up!!ped! FFF!ped-up! | %116
!ped! [C,,C,] z!p! [C,^A,]-!ped-up!!ped! [C,A,]2 [C,B,]-!ped-up! | %117
!ped! [C,B,]2 [C,^G,B,]-!ped-up!!ped! [C,G,B,]2 [^E,,C,-]!ped-up! | %118
!ped! [F,,C,]2 [C,^A,]-!ped-up!!ped! [C,A,]2 [C,B,]!ped-up! | %119
 z2!ped! [C,^G,B,]!ped-up!!ped! z2 [C,F,B,]-!ped-up! | [C,F,B,]2 [C,^E,B,] z2 z | %121
 z2 ^E,!ped! F,3-!ped-up! |!ped! F,2 ^D,!ped-up!!ped! !arpeggio![^D,,^A,,D,]2 [F,F]-!ped-up! | %123
 [F,F]2 [F,F]- [F,F]2!ped! !arpeggio![^D,=A,]!ped-up! | %124
!ped! E,,2 [E,B,E]-!ped! [E,B,E]2 G!ped-up! |!ped! FGE-!ped-up!!ped! E2!ped-up! z | %126
!ped! z2 B,-!ped-up!!ped! B>AG!ped-up! |!ped! FGE!ped-up!!ped! E2 D!ped-up! | %128
!ped! D2 B,!ped-up!!ped! C>B,A,!ped-up! |!ped! z2 E!ped-up!!ped! E2 D!ped-up! | %130
!ped! D2 B,!ped-up!!ped! C>B,A,!ped-up! | A,,2 .[CE]!ped! [DE]2!mf! E,,!ped-up! | %132
!ped! [A,,,A,,]!mf! z [GA]- [GA]2 [GA]-!ped-up! |!ped! [GA]2 [CGA]!ped-up!!ped! [DGA]2 E,, | %134
!ped![A,,,A,,] z [GA]- [GA]2 [GA]-!ped-up! |!ped! [GA]2 [CGA]!ped-up!!ped! [DGA]2 E,, | %136
!ped! [A,,,A,,] z !arpeggio![A,,E,A,-] C>DE!ped-up! | %137
!ped![I:staff -1]{/Fd} c[I:staff +1][K:treble][B,B][A,CGA]!ped-up!!ped! !arpeggio![G,DGB] z z | %138
[K:bass]!ped! (3G,,/D,/G,/[I:staff -1](3B,/D/G/(3B/d/g/!ped![I:staff +1] (3B,,/!ped-up!F,/B,/[I:staff -1](3D/F/B/(3d/f/b/!ped-up! | %139
!ped![I:staff +1] (3_B,,/^G,/D/[I:staff -1](3E/^G/d/(3e/^g/d'/!ped-up!!ped![I:staff +1] (3A,,/=G,/C/[I:staff -1](3^E/A/c/(3^e/a/c'/!ped-up! | %140
!ped![I:staff +1] z2 [F,A,F]!ped-up!!ped! (3:2:1[E,A,E]3/2(3:2:2x[F,F]/[D,D]!ped-up! | %141
!ped! z2 [A,DFA] [A,DFA]2!ped! [B,DFB]!ped-up! | %142
!ped! [A,DFA][G,G][F,F]!ped-up!!ped! [E,A,E][F,F][D,A,D]!ped-up! | %143
!ped! x2 [F,A,F]!ped-up!!ped! [F,A,F]2 [E,F,^A,E]!ped-up! | %144
!ped! [E,F,^A,E]2 [C,F,C]!ped-up!!ped! [D,F,D][C,F,C][B,,F,B,]!ped-up! | %145
!ped! z2 [F,A,F] [F,A,F]2!ped!!ped-up! [E,F,^A,E]!ped-up! | %146
!ped! [E,F,^A,E]2 [C,F,C]!ped-up!!ped! [D,F,D][C,F,C][B,,F,B,]!ped-up! | %147
!ped! (3A,,/_B,,/C,/(3D,/!ped-up!E,/^E,/(3F,/G,/^G,/!ped! (3A,/_B,/C/(3D/E/^E/!ped-up!F | %148
 x!mp!!ped!!<(! .[E,F,E].[C,C] [D,F,D][C,F,C].[B,,F,B,]!ped-up!!<)! | %149
!ped! (3A,,/_B,,/C,/(3D,/E,/^E,/(3F,/G,/^G,/!ped-up!!ped! (3A,/_B,/C/(3D/E/^E/F!ped-up! | %150
 x!mp!!ped!!<(! .[E,F,E].[C,C] [D,F,D][C,F,C]!ff!.[B,,F,B,]!ped-up!!<)! || %151
[K:Gb]!ped! (3D,/__E,/F,/(3G,/!ped-up!A,/=A,/(3B,/C/=C/!ped! (3D/__E/F/(3G/A/=A/!ped-up!B | %152
 x!mp!!ped!!<(! .[A,B,A].[F,B,F] [G,B,G][F,B,F].[E,B,E]!ped-up!!<)! | %153
!ff! x!ped!!<(! [G,DG]/x/[G,=CG]/x/!<)!!ff![G,B,G]/!>(!x/[G,CG]/x/!f![G,DG]/!>)! x/!ped-up! | %154
 x[K:treble]!ped! [G,G]/x/[B,B]/x/[=C=c]/x/[=D=d]/x/[=E=e]!ped-up! || %155
[K:Bb][M:12/16][K:bass] !^![F,,,C,,F,,] z/[K:treble]!ped! x/ x4!ped-up! |[K:bass]!ped! x6!ped-up! | %157
{/^G,} .[A,C] z/{/=E,} .[F,A,] z/{/^G,,} .A,, z/{/=E,,} .F,, z/ | %158
{/A,,} .B,, z/{/^C,} .D, z/{/=E,} .F, z/ !>!D3/2 | %159
[K:treble]{/^g} [ac'] z/{/=e} [fa] z/{/^G} A z/{/=E} F z/ | %160
{/=A} B z/{/c} _d z/{/=e} f z/ !>!_d'3/2 |[K:bass] _A/G/F/E_D/ C->C z/ z/ | %162
 =E/F/_G/=G/_A x z/!ped! !arpeggio![_G,_DB]3/2!ped-up! | %163
[K:treble]!ped! _f/e/_d/_c__B/!ped-up!!ped! _A>A z/ z/!ped-up! | %164
!ped! c/_f/=f/^f/!ped-up!=e!ped! x z/ !>!a3/2!ped-up! || %165
[K:D][K:bass] !>![A,,D,]/ x[K:treble] g/ x4 |[K:bass] !>![A,,D,]/ z[K:treble] f/ x2 x/ !>![DF]3/2 | %167
 !>![A,D]/ x3/2 z4 | [A,D]/ x f'/ x2 x/ !>![df]3/2 | %169
[K:bass]!mf! [D,G,B,]3/2[D,,D,]3/2 [A,EG]3/2[D,,D,]3/2 | %170
 [D,A,D]/ z/ z/ [DEG]>[DF] z/ z/ !>![D,B,]3/2 | %171
!ped! !arpeggio![E,G,DG]3/2[B,,,B,,]3/2!ped-up!!ped! !arpeggio![E,G,DG]3/2[_B,,,_B,,]3/2!ped-up! | %172
!ped! !arpeggio![E,A,CG]3/2 !>!A,,,2 x x/ x!ped-up! |[K:treble]!ped! x6!ped-up! | %174
[K:bass]!p!!ped! !arpeggio![E,_B,=CG]3/2 !>!=C,,2 x/ x2!ped-up! |[K:treble]!ped! x6!ped-up! || %176
[K:Db][K:bass]!pp!!ped! !arpeggio![E,A,CG]3/2 !>!A,,,2 x/ x2!ped-up! | %177
[K:treble]!p!!ped! x6!ped-up! | __b/c'/g/b/e/g/c/e/__B/c/G/B/ | %179
[K:bass] E/G/C/E/__B,/C/G,/B,/E,/G,/C,/E,/ | %180
 __B,,/C,/G,,/B,,/E,,/G,,/C,,/E,,/__B,,,/C,,/G,,,/B,,,/ |!<(! x3/2 A,,3 A,,3/2- | %182
 A,,3/2 A,,3 A,,3/2-!<)! | A,,3/2 A,,3 A,,3/2- |A,,3/2 A,,3 A,,3/2- | A,,3/2 A,,3 A,,3/2- | %186
 A,,3/2 A,,3 A,, x/ | E,/F,/D,/ A,,/=G,,/A,,/A,,,/=G,,,/A,,,/A,,/G,,/A,,/ | %188
 E,/F,/D,/ A,,/=G,,/A,,/A,,,/=G,,,/A,,,/A,,/G,,/A,,/ | %189
 D,/C,/B,,/ A,,/=G,,/A,,/A,,,/=G,,,/A,,,/A,,/G,,/A,,/ | %190
 A,,,/A,,/A,,/!>![__E,G,_C]/A,,/A,,/ A,,,/A,,/E,/!>![G,C__E]/E,/A,,/ | %191
 A,,,/A,,/A,,/!>![__E,G,_C]/A,,/A,,/ A,,,/A,,/A,,/!>![E,G,C]/A,,/A,,/- | x3/2 [E,G,A,] x/ z x2 | %193
 [E,,E,]/[D,,D,]/[C,,C,]/[B,,,B,,]/[C,,C,]/[A,,,A,,]/[I:staff -1] !^![B,B]/[Cc]/[A,A]/[I:staff +1]!^![__B,,__B,]/[_C,_C]/[A,,A,]/ | %194
 A,,,/A,,/__E,/-!>![E,G,_CG] [E,__E]/ [D,D]/[E,E]/[_C,C]/ [E,G,C]/A,,/A,,/ | %195
 x3/2 x [__E,__E]/ [D,D]/[E,E]/[_C,_C]/ x3/2 | [A,,,A,,]/[E,,E,]/[F,,F,]/[G,,G,] [C,C]/ [E,G,] x2 | %197
 x3/2 [E,G,] x/[I:staff -1] B,/C/A,/[I:staff +1]!^!__B,/_C/A,/ |!ped!!mp! !>!!^![D,,A,,]6!ped-up! | %199
!ped! !>![D,,A,,]6!ped-up! |!ped! !>![D,,A,,]6!ped-up! |!ped! !>![D,,A,,]6!ped-up! | %202
!ped!!mp! x3/2!ped-up! x/ x4 |!ped! x3/2!ped-up! x/ x4 |!ped! x3/2!ped-up! x/ x4 | %205
!ped! x3/2!ped-up! x/ x4 |!ped! x2!ped-up![K:treble] x4 |[K:bass]!ped! x2!ped-up![K:treble] x4 | %208
[K:bass]!ped! x2!ped-up![K:treble] x4 |[K:bass]!ped! x2!ped-up![K:treble] x4 || %210
[K:G][K:bass]!ped! ^D/ x/!ped-up![K:treble] [^dfc']/x/[df^a]/ x/ [dfc']/x/[dfc']/ z/ [dfc']/ x/ | %211
[K:bass]!ped! !^![C,=F,A,F]!ped-up! x[K:treble] x2 z/ [^GB]/[I:staff -1][Ac] | %212
[I:staff +1][K:bass]!ped! x2!ped-up![K:treble] x4 | %213
[K:bass]!ped! !^![C,=F,A,F]!ped-up! x[K:treble] x z/[K:bass] x [^G,B,]/[I:staff -1][A,C] | %214
!ped![I:staff +1] !^![B,,F,A,^D]/[I:staff -1][B,FAB]/[I:staff +1][^D,F,C]/[I:staff -1] [B,FAB]/[I:staff +1][D,F,^A,]/!ped-up![I:staff -1][B,FAB]/!ped![I:staff +1] [D,F,C]/[I:staff -1][=DFA=d]/[I:staff +1][D,F,C]/[I:staff -1] [B,FAB]/[I:staff +1][D,F,C]/!ped-up![I:staff -1][B,FAB]/ | %215
!<(!!ped![I:staff +1] A,/[I:staff -1]A/[I:staff +1][^G,A,]/[I:staff -1] [^GA]/[I:staff +1][=G,A,]/!ped-up![I:staff -1][=GA]/!ped![I:staff +1] [F,A,]/[I:staff -1][FA]/[I:staff +1][F,A,]/[I:staff -1] [=FA]/[I:staff +1][E,^F,A,]/!<)!!ped-up!!ff![I:staff -1][E^FA]/ | %216
!ped![I:staff +1] [^D,F,A,]/!>(![I:staff -1][^DFA]/[I:staff +1][E,F,A,]/[I:staff -1] [EFA]/[I:staff +1][D,F,A,]/!ped-up![I:staff -1][DFA]/!ped![I:staff +1] [=D,F,A,]/[I:staff -1][=DFA]/[I:staff +1][^C,F,A,]/[I:staff -1] [^CFA]/[I:staff +1][=C,F,A,]/!>)!!ped-up!!f![I:staff -1][=CFA]/ | %217
!<(!!ped![I:staff +1] [B,,^D,F,A,]/[I:staff -1][B,^DFA]/[I:staff +1][B,,D,F,A,]/[I:staff -1] [B,DFA]/[I:staff +1][B,,D,F,A,]/[I:staff -1][B,DFA]/[I:staff +1] [B,,D,F,A,]/[I:staff -1][B,DFA]/[I:staff +1][B,,D,F,A,]/[I:staff -1] [B,DFA]/[I:staff +1][B,,D,F,A,]/!ped-up![I:staff -1][B,DFA]/!<)! || %218
[K:Db]!fff![I:staff +1] [C,E,G,B,]/[I:staff -1]C/[EGB]/!ped![I:staff +1] !^![A,,,A,,]/ x!ped-up! z3/2 z3/2 | %219
 [D,F,A,]/[I:staff -1][DF]/[Ad]/!ped![I:staff +1] !^![A,,,A,,]/ x!ped-up! x3/2 !>![DF]3/2 | %220
 G/ x/ x!ped![K:treble] x x!ped-up! x2 |[K:bass] F/ x/ x!ped! x x3/2!ped-up! !>![DF]3/2 | %222
 [G,B,E]3/4x3/4[G,B,E]3/4 x3/4 !^![A,CG]3/4x3/4[A,CG]3/4 x3/4 | %223
 [A,DF]3/4x3/4[=A,EG]3/4x3/4[B,DF]3/4 x3/4 !>![A,_C=D]3/2 || %224
[M:6/16] [G,B,E]3/4x3/4[G,B,E]3/4 x3/4 ||[K:E] [=G,^A,E]3/4x3/4[G,A,E]3/4 x3/4 || %226
[M:12/16] [G,B,E]3/4x3/4[=A,B,D]3/4x3/4[G,B,E]3/4 x3/4[K:treble] !>![B,EGB]3/2 | %227
[K:bass] [B,,E,]/ x[K:treble] a/ x4 |[K:bass] [B,,E,]/ x[K:treble] g/ x x3/2 !>![EG]3/2 | %229
 [B,E] x x4 | [B,E]/ x3/2 x4 |[K:bass] [A,CF]3/4x3/4[A,CF]3/4 x3/4 !^![B,DA]3/4x3/4[B,DA]3/4 x3/4 | %232
 [B,EG]3/4x3/4[^B,FA]3/4x3/4[CEG]3/4 x3/4 !>![B,=D^E]3/2 | %233
 [CFA]3/4x3/4[CFA]3/4 x3/4 !^![B,^DA]3/4x3/4[B,DA]3/4 x3/4 | %234
 [B,EG]3/4x3/4[^B,FA]3/4x3/4[CEG]3/4 x3/4[K:treble] !>![=D^EB=d]3/2 || %235
[K:Db][K:bass] A,,/[I:staff -1]D,/F,/G,/A,/B,/[I:staff +1] x3 | %236
 D,,/A,,/D,,/A,,/D,,/A,,/ D,,/A,,/D,/A,/D,/A,,/ | D,,/A,,/D,,/A,,/D,,/A,,/ D,,/A,,/D,/A,/D,/A,,/ | %238
 D,,/A,,/D,/A,/D,/A,,/ D,,/A,,/D,/A,/D,/A,,/ |!mf! D,, !^!__B,!^!G, D,, !^!__E!^!G | %240
 D,, !^!_C!^!A, D,, !^!D!^!F | G3/2 x3/2 G3/2 x3/2 | %242
[K:treble] _c3/2[K:bass] x3/2[K:treble] =c3/2[K:bass] x3/2 | %243
[M:2/4]!ped! [D,,,A,,,D,,] !>!D!ped-up! E/F/D |!ped! [D,,D,] !>![F,DF]2!ped-up! [G,DG] | %245
 [F,DF] x3 |!ped! !>![D,,D,] !>![D,A,D]2!ped-up! [D,A,C] | [D,=A,C][D,,D,] [D,B,D][D,,D,] | %248
!ped! !arpeggio!!>![D,A,DF] z z!ped-up! E |{/D,} !>!E/__E/D/C/ D/C/!>!B,- | %250
 B, [A,FA][B,F=GB] [D,,D,] |!>![C,,C,]!ped! !arpeggio!!>![C,=A,] x2!ped-up! | %252
!ped! x2!ped-up!!ped! x2!ped-up! |!ped! x2!ped-up![K:treble]!ped! x2!ped-up! | %254
!ped! x2!ped-up!!ped! x2!ped-up! |!ped! !arpeggio!!>![F,C=A] x3!ped-up! | %256
!ped! x[K:bass] x x2!ped-up! |!ped! x2 x2!ped-up! |!ped! x!ped-up!!ped! z z z!ped-up! | %259
!fff!!ped! !>![D,,,D,,] !^![F,A,DF]!ped-up!!ped![E,E]/[F,F]/[D,D]!ped-up! | %260
!ped! [D,,D,] !>![A,DFA]2!ped-up! [B,DFB] | %261
!ped! !^![A,DFA]/[=G,=G]/[_G,_G]/[F,F]/[_F,_F]/[E,E]/[__E,__E]/[D,D]/!ped-up! | %262
!ped! !>![D,,D,] !>![A,DFA]2!ped-up! [=A,CEG] | !^![=A,EG][D,,D,] !^![B,DF][D,,D,] | %264
!ped! !>![D,,,D,,] !>![F,A,DF]2!ped-up! [E,G,CE] | %265
 !^![E,G,CE]/[=D,=D]/[_D,_D]/[C,C]/ !^![D,F,D]/[C,C]/[B,,B,] | %266
 [B,,,B,,]/[C,,C,]/[D,,D,]/[F,,F,]/ [=G,,=G,]/[_F,,_F,]/[E,,E,]/[D,,D,]/ | %267
 [_C,,_C,]!ped! !arpeggio!!>![C,A,] z2!ped-up! |!ped! x2!ped-up!!ped! x2!ped-up! | %269
!ped! x2!ped-up![K:treble]!ped! x2!ped-up! |!ped! x2!ped-up!!ped! x2!ped-up! | %271
[K:bass]!ped! !>!!^!A,,,/F,,/[I:staff -1]A,,/D,/!ped-up!!ped![I:staff +1] C,/[I:staff -1][D,F,A,D]/[I:staff +1] D,/[I:staff -1][E,E]/!ped-up! | %272
!ped![I:staff +1] x4!ped-up! | F,,,/B,,/[I:staff -1]=D,/B,/!ped![I:staff +1] x2!ped-up! | %274
!ped! x2!ped-up![I:staff -1] D/_F,/[I:staff +1]D,/__B,,,/ | %275
 A,,,/D,/[I:staff -1]=F,/!ped!D/[I:staff +1] x2!ped-up! | %276
!ped! x2!ped-up![I:staff -1] =E/B,/[I:staff +1]G,/G,,/ | %277
 F,,/B,/[I:staff -1]=D/B/!ped![I:staff +1] x2!ped-up! | %278
!ped! x2!ped-up![I:staff -1] d/_F/[I:staff +1][_F,D]/__B,,/ | %279
 =F,/B,/[I:staff -1]=F/d/[I:staff +1][K:treble]!ped! x2!ped-up! | %280
[K:bass]!ped! !arpeggio!!^![A,,E,G,C]/ x3/2!ped-up![K:treble]!ped! x2!ped-up! | %281
!ped! x2!ped-up!!ped! x2!ped-up! | %282
!ped! !arpeggio!!^![A,EG_d]/ x3/2!ped-up!!ped! !arpeggio!!^![A,EGc]/ x3/2!ped-up! || %283
[K:bass] !^![D,,A,,D,] z D,/D,/ x | D,/D,/ x D,/D,/ x | _C,/ x C,/C,/ x C,/ | %286
_C,/ x C,/C,/ x/ [G,,G,]/[I:staff -1][__Be__b]/ |[I:staff +1] !^![D,,A,,D,] z D,/D,/ x | %288
 D,/D,/ x D,/D,/ x | D,/ x D,/D,/ x D,/ |D,/ x D,/D,/ x/ D,/[I:staff -1][__B,__B]/ | %291
[I:staff +1] !^![D,G,__B,__E] x D/D/[I:staff -1]E/E/ |[I:staff +1] G,/G,/ x G,/G,/ x | %293
 !^![D,__A,_C__E] z C/C/ x | _C/C/ x _C/C/ x | %295
 z/[I:staff -1] [_CD]/[I:staff +1][A,,D,]/ z/ z/[K:treble][I:staff -1] [DF]/[I:staff +1][_cdf]/ z/ | %296
[K:bass] z/[I:staff -1] [DG]/[I:staff +1]G,/ z/ z/[K:treble][I:staff -1] [G__B]/[I:staff +1][g__b]/ z/ | %297
 z/[K:bass][I:staff -1] [G__B]/[I:staff +1][G,__B,C]/ z/ z/[K:treble][I:staff -1] [Bc]/[I:staff +1][_b_c'__e']/ z/ | %298
 z/[K:bass][I:staff -1] [eg]/[I:staff +1][G,A,C]/ z/ z/[K:treble][I:staff -1] [eg]/[I:staff +1][e'g'a']/ z/ || %299
[K:D][K:bass] !^![_D,,_A,,_D,] C/[I:staff -1]C/[I:staff +1] B,/[I:staff -1]B,/[I:staff +1] C/[I:staff -1]C/ | %300
[I:staff +1] D/[I:staff -1]D/[I:staff +1] E/[I:staff -1]E/[I:staff +1] C/[I:staff -1]C/[I:staff +1] D/[I:staff -1]D/ | %301
[I:staff +1] B,/[I:staff -1]B,/A,/[I:staff +1]A,/ D/[I:staff -1]D/C/[I:staff +1]C/ | %302
 B,/[I:staff -1]B,/C/[I:staff +1]C/ D/[I:staff -1]D/[I:staff +1] [D,,^G,,D,]/[I:staff -1][^Gf^g]/ | %303
[I:staff +1] !^![C,,^G,,C,] C/[I:staff -1]C/[I:staff +1] B,/[I:staff -1]B,/[I:staff +1] C/[I:staff -1]C/ | %304
[I:staff +1] D/[I:staff -1]D/[I:staff +1] E/[I:staff -1]E/[I:staff +1] C/[I:staff -1]C/[I:staff +1] D/[I:staff -1]D/ | %305
[I:staff +1] B,/[I:staff -1]B,/A,/[I:staff +1]A,/ =C/[I:staff -1]=C/B,/[I:staff +1]B,/ | %306
 A,/[I:staff -1]A,/B,/[I:staff +1]B,/ =C/[I:staff -1]=C/[I:staff +1] [D,,D,]/[I:staff -1][DFcd]/ | %307
!fff![I:staff +1] !^![G,,,D,,G,,]!ff! x F/F/[I:staff -1]G/G/ |[I:staff +1] B,/B,/ x B,/B,/ x | %309
!fff! !^![E,,G,,=C,E,]!ff! x[K:treble] B/B/[I:staff -1]c/c/ |[I:staff +1] E/E/ x E/E/ x | %311
[K:bass] z/[I:staff -1] [EF]/[I:staff +1]F,/ z/ z/[K:treble][I:staff -1] [F^A]/[I:staff +1][ef^a]/ z/ | %312
[K:bass] z/[I:staff -1] [FB]/[I:staff +1][F,B,]/ z/ z/[K:treble][I:staff -1] [Bd]/[I:staff +1][bd']/ z/ | %313
 z/[K:bass][I:staff -1] [de]/[I:staff +1][^G,B,E]/ z/ z/[K:treble][I:staff -1] [d^g]/[I:staff +1][d'e']/ z/ || %314
[K:Db][K:bass] z/[I:staff -1] [ga]/[I:staff +1][A,E]/ z/ z/[K:treble][I:staff -1] [ac']/[I:staff +1][g'a']/ z/ | %315
[K:bass]!fff!!8vb(!!ped! !>!!^![D,,,D,,]!8vb)! [A,,D,A,][D,A,D][F,A,DF]!ped-up! | %316
!ped! [D,,D,]/[=E,,=E,]/[=G,,=G,]/[B,,B,]/[D,D]/[=E,=E]/[=G,=G]!ped-up! | %317
!8vb(!!ped! !>!!^![D,,,D,,]!8vb)! !>![A,DFA]2 [F,A,DF]!ped-up! | %318
!ped! [D,,D,]/[G,,G,]/[=A,,=A,]/[C,C]/[E,E]/[G,G]/[=A,=A]!ped-up! | %319
!ped!!8vb(! !>!!^![D,,,D,,]!8vb)! !>![=A,EG]2 [B,DG]!ped-up! | %320
!ped! [D,,D,]/[=E,,=E,]/[=G,,=G,]/[B,,B,]/[D,D]/[=E,=E]/[=G,=G]!ped-up! | %321
!ped! !^![A,DFA][A,,,A,,] =E/F/_E/D/!ped-up! |!ped! =G,/A,/_G,/F,/ =E,/F,/_E,/D,/!ped-up! | %323
 =G,/A,/_G,/F,/ =E,/F,/_E,/D,/ |!<(! B,,/_C,/=C,/!<)!!mp!D,/ D,/!>(!C,/_C,/!p!B,,/!>)! | %325
 =A,,/B,,/=B,,/C,/ _B,,/_C,/=C,/D,/ |!<(! B,,/_C,/=C,/!<)!!mp!D,/ D,/!>(!C,/_C,/!p!B,,/!>)! | %327
 =A,,/B,,/=B,,/C,/ __B,,/_C,/=C,/D,/ |!<(! __B,,/_B,,/_C,/!<)!!mp!=C,/ D,/!>(!C,/_C,/!>)!!p!B,,/ | %329
!<(!!ped! __B,,/G,/B,,/D,,/!ped-up!!ped! B,,/E,/B,,/D,,/!ped-up! | %330
!ped! A,,/G,/A,,/D,,/!ped-up!!ped! A,,/E,/A,,/D,,/!ped-up! | %331
!ped! A,,/G,/A,,/D,,/!ped-up!!ped! A,,/E,/A,,/D,,/!<)!!ped-up! |!ff! [A,,D,]!ped! x x2!ped-up! | %333
!ped! x4 | x4!ped!!ped-up! | x4 | x!ped-up!!<(!!ped! [F,,D,F,]/x/[F,,D,F,]/x/[F,,D,F,]/ x/ | %337
[F,,D,F,]/x/[F,,D,F,]/x/[F,,D,F,]/x/[F,,D,F,]/!<)!!fff! x/ | %338
!>(!!ped! [F,,D,F,]/x/[F,,D,F,]/x/[F,,D,F,]/x/[F,,D,F,]/!ped-up! x/ | %339
[F,,D,F,]/x/[F,,D,F,]/x/[=F,,D,=F,]/x/[F,,D,F,]/ x/!>)! | %340
!ff! [F,,D,F,] z!ped! !arpeggio![=A,,F,=A,E] z!ped-up! | %341
!ped! !arpeggio![=A,,=E,=A,=E] z !^![G,DG] z!ped-up! | !^![_A,DF_A] z z2 | %343
[K:treble] !^![FAdf] z z2 |[K:bass]{/A,__B,C} !^![D,D][D,,,D,,] z2 | !fermata!z4 |] %346
V:3
 x6 | x6 | x6 | x6 | x6 | x6 | x6 | x6 |[I:staff +1] G/[I:staff -1]G/G/G/F/G/ =D/E/F/GA/ | %9
[I:staff +1] F/[I:staff -1]F/F/F/D/E/ F/G/F/ D3/2 | %10
[I:staff +1] G/[I:staff -1]G/G/G/F/G/ =D/E/F/GA/ | %11
[I:staff +1] F/[I:staff -1]F/F/F/D/E/ F/G/F/ D3/2 | =D/E/F/G/=A/B/ =B/c/_B/_A/=G/_G/ | %13
 =E/F/=G/ A/=A B/ x/ x/ =D3/2 | =D/E/F/G/=A/B/ =B/c/_B/_A/=G/_G/ | =E/F/=G/ A/=A B/ x D3/2 | %16
 C/[I:staff +1]C/[I:staff -1]C/ B,/[I:staff +1]B,/[I:staff -1]C/ D/[I:staff +1]D/[I:staff -1]E/ C/[I:staff +1]C/[I:staff -1]D/ | %17
 B,/[I:staff +1]B,/[I:staff -1]A,/ D/[I:staff +1]D/[I:staff -1]C/ B,/[I:staff +1]B,/[I:staff -1]C/ D/[I:staff +1]D/[I:staff -1]B,/ | %18
 C/[I:staff +1]C/[I:staff -1]C/ B,/[I:staff +1]B,/[I:staff -1]C/ D/[I:staff +1]D/[I:staff -1]E/ C/[I:staff +1]C/[I:staff -1]D/ | %19
 B,/[I:staff +1]B,/[I:staff -1]A,/ D/[I:staff +1]D/[I:staff -1]C/ B,/[I:staff +1]B,/[I:staff -1]C/ D/[I:staff +1]D/[I:staff -1]B,/ | %20
[I:staff +1] C/"_cresc."[I:staff -1]C/[Fc]/[I:staff +1] B,/[I:staff -1][B,B]/[Cc]/[I:staff +1] D/[I:staff -1][Dd]/[Ee]/[I:staff +1] C/[I:staff -1][Cc]/[Dd]/ | %21
[I:staff +1] B,/[I:staff -1][B,B]/[A,A]/[I:staff +1] D/[I:staff -1][Dd]/[Cc]/[I:staff +1] B,/[I:staff -1][B,B]/[Cc]/[I:staff +1] D/[I:staff -1][Dd]/[B,B]/ | %22
[I:staff +1] C/[I:staff -1]C/[Fc]/[I:staff +1] B,/[I:staff -1][B,B]/[Cc]/[I:staff +1] D/[I:staff -1][Dd]/[Ee]/[I:staff +1] C/[I:staff -1][Cc]/[Dd]/ | %23
[I:staff +1] B,/[I:staff -1][B,B]/[A,A]/[I:staff +1] D/[I:staff -1][Dd]/[Cc]/[I:staff +1] B,/[I:staff -1][B,B]/[Cc]/[I:staff +1] D/[I:staff -1]D/[EGd]/ | %24
 G/G/G/G/F/G/ =D/E/F<G | F/F/F/F/D/E/F/G/F/ !>!D3/2 | g/g/g/g/f/g/ =d/e/f<g | %27
 _f/f/f/f/d/e/f/g/f/ !>!d3/2 | =D/E/F/G/=A/B/ =B/c/_B/_A/=G/_G/ | =E/F/=G/A/=AD3/2 =D3/2 || %30
[K:E] ^^c/d/^e/f/g/a/ ^^a/^b/=a/g/^^f/^f/ | d/=e/f/[e^^f]/ge3/2 c3/2 | x4 x/ =D=E/ | x6 | %34
 x4 x/ =d=e/ | x6 | x6 | x6 | x6 | x6 | x6 | x5!8va(! x | x11/2!8va)! x/ | x6 ||[K:Db] x6 | %45
 x3 A,3/2=G,3/2 | _G,3 G,3/2G,3/2 | F,3 F,3/2F,3/2 | _C3 A,3 | G,3 G,3/2E3/2 | D3 D3 | %51
 D3 D3/2D3/2 | x6 | x6 | x6 | x6 | x6 | x6 | x6 | x6 | x6 | x6 | x6 | x6 | x6 | x6 |!8va(! x6 | %67
 x6!8va)! |[K:bass] =D,/E,/F,/G,/=A,/B,/=B,/C/_B,/A,/=G,/_G,/ | %69
 =E,/F,/=G,/A,/=B,/C/C/D/C/_B,/__B,/A,/ | F,/G,/=A,/B,/C/D/[K:treble] =D/E/_D/C/_C/B,/ | %71
 =E/F/_E/D/=B,/C/ F/G/F/E/__E/D/ | =D/E/F/G/=A/B/=B/c/_B/A/=G/_G/ | %73
 =E/F/=G/A/=B/c/c/d/c/_B/__B/A/ | F/G/=A/B/c/d/=d/e/_d/c/_c/B/ | =e/f/_e/d/=B/c/f/g/f/e/__e/d/ || %76
[K:A] !>!F/d/f/- x/ x4 | !>!E/c/e/- x/ x4 | C/D/E/F/G/A/B/=c/_B/_A/=G/_G/ | %79
 E/=F/=G/_A/=A_D3/2 =D3/2 |!8va(! !>!^f/d'/f'/- x/ x4 | !>!e/c'/e'/- x/ x4!8va)! || %82
[M:3/8] c/d/e/f/g/a/ ||[K:Db] =b/c'/_b/a/=g/_g/ ||[M:12/16] =e/f/=g/a/=ad3/2 d3/2 | %85
 d'3/2d'3/2 D3/2D3/2 | x2 x !^![F,A,DF]3- | [F,A,DF]6 || z2 z"_poco a poco ritardando"!>(! _C3 | %89
 B,3 =A,3 | =B,3 !>!_B,3-!>)! | =G,3 x3 ||[K:D][M:6/8] x2 x A,3- | A,6- | A,3 [A,A]3- | %95
 [A,A]3 [^A,^A]3- | [A,A]3 [B,B]3 | x2 x [^A,^A]3- | [A,A]3 [B,B]3- | x6 | %100
 z2!p!"^poco scherzando" A, C>DE | C2 A, B,3- | B,2 A, C>DE |{/CD} CB,A, B,3- | B,2 A, x x2 | x6 | %106
 x6 | x6 | z2 [ff'] [ee']>[ff'][dd']- | [dd']2 [aa'] [aa']2 [bb'] | %110
{/a-xb'} [aa']>[gg'][ff'] [ee'][ff'][dd'] | z2 [ff'] [ff']2 [ee'] | [ee']2 [cc'] [dd']>[cc'][Bb] | %113
 z2 [ff'] [ff']2 [ee'] | [ee']2 [cc']{/dfe'} [dd']>[cc'][Bb] | x6 | x2 C ^E>F^G | ^E2 C ^D3- | %118
 D2 C ^E>F^G |{/^EF} E^DC D3- | D2 C ^E>F^G | z2 ^G, B,3- | B,2 [^G,B,] x x2 | x6 | %124
 x2 [GB]- [GB]2 [EB]- | [EB]2 [Ge]- [Ge]2 z | z2 z z2 B- | B2 [GB]- [GB]2 [GB] | [GB]3 [GA]3 | %129
 x2 [GB]- [GB]2 [GB] | [GB]3 G3 | x6 | x6 | x (3A/c/g/(3a/c'/g'/ (3g'/d'/b/(3g/d/B/(3G/D/B,/ | x6 | %135
 x (3A/c/g/(3a/c'/g'/ (3g'/d'/b/(3g/d/B/(3G/D/B,/ | x3 [GA]2 [GA] | %137
 z (3A/c/g/(3a/c'/g'/ (3g'/d'/b/(3g/d/B/(3G/D/B,/ | x6 | x6 | %140
 z (3F/A/f/(3f/a/f'/(3d'/a/e/(3e/a/f/(3d'/[fa]/d/ | %141
 z (3A/d/f/(3a/d'/d'/(3d'/d'/a/(3a/d'/f'/(3d''/d'/b/ | %142
 (3a'/d'/a/(3g'/d'/g/(3f'/d'/f/(3e'/d'/e/(3f'/a/f/(3d'/d'/b/ | %143
 z (3F/A/f/(3f/a/f'/(3f'/a/f/(3f/a/f'/!8va(!(3f'/^a'/f''/ | x!8va)! x5 | x5!8va(! x | %146
 (3f''/^a'/f'/(3f'/a/f'/(3c'/f'/c''/ (3d'/f'/d''/(3c'/f'/c''/(3b/f'/b'/ | x6!8va)! | x4!8va(! x2 | %149
 x6!8va)! | x6 ||[K:Gb] x!8va(! x5!8va)! | x6 | x6 |!8va(! x!8va)! x5 || %155
[K:Bb][M:12/16]!8va(! x3!8va)! x3 |[K:bass] x5[K:treble] x | E/E/E/E/D/E/ =B,/C/D/EF/ | %158
 D/D/D/D/B,/C/D/E/D/ x3/2 | e'/e'/e'/e'/=d'/e'/ =b/c'/d'/e'f'/ | _d'/d'/d'/d'/b/c'/d'/e'/d'/ x3/2 | %161
 =B/c/d/e/^f/g/ ^g/a/=g/=f/=e/_e/ | ^c/d/e/=e/f _d/ x _G3/2 | %163
 =g/_a/b/_c'/d'/e'/ =e'/f'/_e'/_d'/=c'/_c'/ | =a/b/=b/^b/^c' a/ x3/2 x ||[K:D] x4 x/ G=A/ | x6 | %167
 x4 x/ g=a/ | x6 | ^D/E/F/G/^A/B/ ^B/c/=B/A/^G/=G/ | ^E/F/^G/A/^A B/ z D3/2 | %171
 ^d/e/f/g/^a/b/ =a/_b/c'/d'/f'/g'/ | c'/g'/f'/g'/c'/g'/f'/g'/c'/g'/f'/g'/ | %173
 c'/g'/f'/g'/c'/g'/f'/g'/c'/g'/f'/g'/ | =c'/g'/f'/g'/c'/g'/f'/g'/c'/g'/f'/g'/ | %175
 =c'/g'/f'/g'/c'/g'/f'/g'/c'/g'/f'/g'/ ||[K:Db] c'/g'/f'/g'/c'/g'/f'/g'/c'/g'/f'/g'/ | %177
 c'/g'/f'/g'/c'/g'/f'/g'/c'/g'/f'/g'/ | f'/g'/=d'/e'/=b/c'/a/__b/f/g/=d/e/ | %179
 =B/c/A/__B/F/G/=D/E/[K:bass]=B,/C/A,/__B,/ | F,/G,/=D,/E,/=B,,/C,/A,,/__B,,/F,,/G,,/=D,,/E,,/ | %181
 x6 | x6 | [E,G,]3 x x/ [G,=A,]3/2- |[G,A,]3/2 G,/ x x x/ [E,G,]3/2 | %185
 [=E,=G,]>F, x x x/ [_E,_G,]3/2 | [=E,=G,]>F, x[K:treble] [A,_C]2 x/ F,/ | x x/ [_C=D]3 C F,/ | %188
 x x/ [A,_C]3/2[=A,=C]>B, x | x x/ [A,_C]3/2[=A,=C]>B, x | x3/2 G3/2 x x/ _c3/2- | %191
 c/ x G3/2 x x/ [G_c]3/2 | x6 | x!8va(! x3/2!8va)! x7/2 | %194
 [__eg_c'__e'][ee']/!>![dd']/[ee']/[_cc']/ x [gg']/ [gg'][aa']/ | %195
 [gg']/[_f_f']/[__e__e']/!>![dd']/[ee']/[_c_c']/ z [ee']/ [ee'][dd']/ | x3/2 [EG]3/2 x x2 | %197
!8va(! x3!8va)! g3/2[I:staff +1] G,3/2 | x6 | x6 | x6 | x6 | x6 | x6 | x6 | x6 | x6 | x6 | x6 | %209
 x6 ||[K:G]!8va(! x6!8va)! | x6 | x6 | x6 | x6 | x6 | x6 | x6 ||[K:Db][I:staff -1] x4 x/ G_A/ | %219
 x6 | B/[dg]/b/- x/ x4 | A/[df]/a/ x/ x4 | x6 | x6 ||[M:6/16] x/!8va(! x5/2 ||[K:E] x3 || %226
[M:12/16] x6!8va)! | x4 x/ A=B/ | x6 | x4 x/ a=b/ | x3/2!8va(! x/!8va)! x4 | x6 | x6 |!8va(! x6 | %234
 x6!8va)! ||[K:Db] x3[K:bass] =B,/C/_B,/A,/=G,/_G,/ | =E,/F,/=G,/A,/=B,/C/ C/D/C/_B,/__B,/A,/ | %237
 F,/G,/=A,/B,/C/D/[K:treble] =D/E/_D/C/_C/B,/ | =E/F/_E/D/=B,/C/ F/G/F/E/__E/D/ | %239
 D/__E/F/G/A/__B/ d/__e/d/_c/_B/__B/ | =G/A/B/_c/d/__e/ =e/f/__e/d/=c/_c/ | %241
 A/__B/=c/d/f/g/ d/__e/f/g/_b/_c'/ | =g/[a_c']/b/c'/d'/__e'/!8va(! =b/=c'/=d'/_e'/f'/=g'/!8va)! | %243
[M:2/4]!8va(! x!8va)! [FA]2 [FA] | x4 | [Aa]/[=G=g]/ x x2 | x F2 G | G2 F z | x F3 | !>!F2 F z | %250
 x2!8va(! x2!8va)! | x4 | x2 (3B/=G/=D/[I:staff +1](3B,/C,/=E,,/ | %253
 (3!^!F,,/C,/=A,/[I:staff -1](3C/F/=A/ x2 | x2 (3b/=g/=d/[I:staff +1](3B/C/=E,/ | x4 | x4 | x4 | %258
 x179/60!8va(! x63/64!8va)! |!8va(! x!8va)! x3 | x4 | x4 | x4 | x4 | x4 | x4 | x!8va(! x3 | %267
 x!8va)! x3 |[I:staff -1] x2 (3__B/G/D/[I:staff +1](3__B,/_C,/E,,/ | %269
 (3!>!!^!_F,,/_C,/A,/[I:staff -1](3_C/_F/A/ x2 | %270
 x2 _b/4=e/4d/4[I:staff +1]B/4=E/4D/4=G,/4[I:staff -1] z/4 |[K:bass] x4 | %272
 x2 =E,/C,/[I:staff +1]G,,/G,,,/ | x5/2[I:staff -1][K:treble] x3/2 | x4 | x4 | x4 | x4 | x4 | x4 | %280
 x4 | x4 |!8va(! x4!8va)! ||!8va(! x!8va)! A,/A,/[I:staff +1] G,/G,/[I:staff -1]A,/A,/ | %284
[I:staff +1] __B,/B,/[I:staff -1]_C/C/[I:staff +1] A,/A,/[I:staff -1]__B,/B,/ | %285
[I:staff +1] G,/[I:staff -1]G,/_F,/[I:staff +1]_F,/ __B,/[I:staff -1]__B,/A,/[I:staff +1]A,/ | %286
 G,/[I:staff -1]G,/A,/[I:staff +1]A,/ __B,/[I:staff -1]__B,/ x | %287
 x A,/A,/[I:staff +1] G,/G,/[I:staff -1]A,/A,/ | %288
[I:staff +1] __B,/B,/[I:staff -1]_C/C/[I:staff +1] A,/A,/[I:staff -1]__B,/B,/ | %289
[I:staff +1] G,/[I:staff -1]G,/_F,/[I:staff +1]_F,/ __A,/[I:staff -1]__A,/G,/[I:staff +1]G,/ | %290
 _F,/[I:staff -1]_F,/G,/[I:staff +1]G,/ __A,/[I:staff -1]__A,/ x | x __E/E/ x2 | %292
[I:staff +1] _F/F/[I:staff -1]G/G/[I:staff +1] __E/E/[I:staff -1]D/D/ | %293
 x __A/A/[I:staff +1] G/G/[I:staff -1]A/A/ | %294
[I:staff +1] __B/B/[I:staff -1]_c/c/[I:staff +1] __A/A/[I:staff -1]G | x4 | x4 | x4 | x4 || %299
[K:D] x4 | x4 | x4 | x4 | x4 | x4 | x4 | x4 | x G/G/ x2 | %308
[I:staff +1] A/A/[I:staff -1]B/B/[I:staff +1] G/G/[I:staff -1]F/F/ | x =c/c/ x2 | %310
[I:staff +1] d/d/[I:staff -1]e/e/[I:staff +1] =c/c/[I:staff -1]B | x4 | x4 | x4 ||[K:Db] x4 | x4 | %316
 x4 | x4 | x4 | x4 | x4 | x4 | x4 | x4 | x [G,B,]3 | G, x G, x | x [G,B,]3 | F, x _F, x | x D3 | %329
 =D/E/_D/C/ F/G/_F/E/ | =A/_B/_A/G/ =B/c/_B/A/ | =d/e/_d/c/ =a/b/_a/g/ | %332
 [fd']!8va(! x/ [=e'=g']/x/[c'e']/x/[=gb]/!8va)! |x/[=e=g]/x/[ce]/x/[=GB]/x/[=EG]/ | %334
x/[I:staff +1][D,D]/[I:staff -1] x x2 | x4 | x4 | x4 | x4 | x4 | x4 | x2!8va(! x2 | x4 | %343
 x!8va)! x3 | x4 | x4 |] %346
V:4
 x6 | x6 | x6 | x6 | x6 | x6 | x6 | x6 | x6 | x6 | x6 | x6 | x6 | x6 | x6 | x6 | x6 | x6 | x6 | %19
 x6 | x6 | x6 | x6 | x6 | x3/2 x3/2 A,/G,/F,/E,A,/ | x3/2 [D,,A,,]3 x3/2 | %26
[K:treble] x3/2 x3/2 A/G/F<E | x3/2 [D,A,]3 x3/2 |[K:bass] z3/2 z [D,,D,]/- [D,,D,]3 | %29
 D/B,/D,/E/G,/D,/F/F,/D,/- D,3/2 ||[K:E][K:treble] x6 | c/G/C/e/G/=E/c/E/A,/- A,3/2 | %32
[K:bass] x3/2[K:treble] x3/2[K:bass] x3 | x3/2[K:treble] x3/2[K:bass] x3 | x3/2[K:treble] x9/2 | %35
[K:bass] x3/2[K:treble] x9/2 |[K:bass] x6 | x3[K:treble] x3 | x6 | x6 | x6 | x6 | x6 | x6 || %44
[K:Db][K:bass] x6 | x6 | x6 | x6 | x6 | x6 | x6 | x6 | x6 | x6 | x6 | x6 | x6 | x6 | x6 | x6 | %60
 x3/2[K:treble] x9/2 |[K:bass] x3/2[K:treble] x9/2 | x6 | x6 | %64
[K:bass] x3/4 D,3/4x3/4!>!D,,3/4 x3/4 !^!D,3/4x3/4!>!D,,3/4 | %65
 x3/4 D,3/4x3/4!>!D,,3/4x3/4D,3/4- D,3/2 | x3/4 D,3/4x3/4!>!D,,3/4 x3/4 !^!D,3/4x3/4!>!D,,3/4 | %67
 x3/4 D,3/4x3/4!>!D,,3/4x3/4D,3/4[K:treble] x3/2 |[K:bass] x6 | x6 | x6 | x6 | %72
 D,,/D,/G,/G,,/E,/E,,/ D,,/D,/A,/A,,/C/C,/ | D,,/D,/A,/A,,/F,/F,,/ D,,/D,/B,/B,,/D/D,/ | %74
 D,,/D,/B,/B,,/G,/G,,/ D,,/D,/E/E,/G/G,/ | D,,/D,/B,/B,,/C/C,/ D,,/D,/C/C,/D/!fff!D,/ ||[K:A] x6 | %77
 x6 | z3/2 z [_D,,_D,]/- [D,,D,]3 | _D/_A,/_D,/_E/_G,/D,/=F/=F,/D,/- !>![D,A,_C]3/2 | x6 | x6 || %82
[M:3/8][K:treble] z3/2 z [_D,_D]/- ||[K:Db] [D,D]3 ||[M:12/16] d/A/D/e/G/D/f/F/D/- D3/2 | %85
 x3[K:bass] x3 | [F,,,F,,]/[E,,,E,,]/[F,,,F,,]<!^![D,,,D,,]- [D,,,D,,]3- | [D,,,D,,]6 || %88
 z2 z [A,,,A,,]3 | [G,,,G,,]3 [F,,,F,,]3 | [=E,,,=E,,]6- | [E,,,E,,]3 x3 ||[K:D][M:6/8] x6 | x6 | %94
 x6 | D,,, z z x3 | x6 | x6 | x6 | x6 | D,, x[K:treble] x4 | x5[K:bass] x | x2[K:treble] x4 | %103
 x5[K:bass] x | x x[K:treble] x4 |[K:bass] x2 C, [B,,D,]3- | [B,,D,]3 x3 | x6 | %108
 !>![D,,A,,] (3F/D/A,/F, A,F,A, | !>![D,,A,,] (3F/D/A,/F, [A,D]F,[A,D] | %110
 !>![D,,A,,] (3F/D/A,/F, [A,D]F,[A,D] | !>!D,, (3F/D/^A,/F, [A,D]F,[A,D]- | %112
 [A,D] (3F/D/^A,/F, [B,D]F,[B,D] | !>!D,, (3F/D/^A,/F, [A,D]F,[A,D]- | %114
 [A,D] (3F/D/^A,/F, [B,D]F,[B,D] | !>![D,,D,] (3F/D/A,/F, [^G,D]F,[G,D] | x6 | x6 | x6 | x6 | x6 | %121
 x2 C, B,,3- | B,,2 ^G,, x x2 | x6 | x2 x2 x [E,B,]- | [E,B,]2 [E,B,]- [E,B,]2 B,, | %126
 E,,2 [E,-B,] [E,B,] z z | z2 [E,B,]- [E,B,]2 [E,B,] |{/A,,} A,,3 A,3 | %129
 E,, [E,B,]2- [E,B,]2 [E,B,] |{/A,,} A,,3 A,3 | x6 | x x A, C>DE | C2 A, B,2 x | x x A, C>DE | %135
 C2 A, B,2 x | x3 A,2 A,- | A,[K:treble] x x4 |[K:bass] G,,/ x/ x x B,,/ x/ x2 | %139
 _B,,/ x/ x x A,,/ x/ x2 | !^![D,,D,]2 x4 | !^![D,,,D,,]2 z z [D,,D,]2- | [D,,D,] x x4 | %143
 [D,,D,]2 z z [D,,D,]2- | [D,,D,][D,,D,] z z2 z | !^![D,,,D,,]2 z z [D,,D,]2- | %146
 [D,,D,][D,,D,] z z2 z | D,, x x4 | [D,,D,] x x4 | D,, x x4 | [D,,D,] x x4 ||[K:Gb] G,, x x4 | %152
 .[G,,G,] x x4 | !^![G,,,D,,G,,] x x4 | !^![G,,,=C,,G,,][K:treble] x x4 || %155
[K:Bb][M:12/16][K:bass] x3/2[K:treble] x9/2 |[K:bass] x6 | x6 | x4 x/{/A,} B,3/2 |[K:treble] x6 | %160
 x4 x/{/a} b3/2 |[K:bass] F/E/D/C=E,/ F,_G,/=G,/_A,/=A,/ | B, z/ _D>_G z/ x2 | %163
[K:treble] _d/_c/B/A=C/ _D__E/_E/_F/=F/ | _G z/ A>d z/ x/ ^f3/2 || %165
[K:D][K:bass] x3/2[K:treble] x9/2 |[K:bass] x3/2[K:treble] x9/2 | x6 | x6 |[K:bass] x6 | x6 | x6 | %172
 x3/2 A,,,3/4A,,3/4C,3/4E,3/4G,3/4A,3/4 |[K:treble]C3/4E3/4G3/4c3/4e3/4g3/4_b3/2 | %174
[K:bass] x3/2 =C,,3/4=C,3/4E,3/4G,3/4_B,3/4=C3/4 |[K:treble]E3/4G3/4_B3/4=c3/4e3/4g3/4_b3/2 || %176
[K:Db][K:bass] x3/2 A,,,3/4A,,3/4!<(!C,3/4E,3/4G,3/4!<)!!p!A,3/4 | %177
[K:treble] C3/4!>(!E3/4G3/4A3/4c3/4!>)!!pp!e3/4g3/4a3/4 | x6 |[K:bass] x6 | x6 | %181
 A,,,/=G,,,/A,,,/A,,/A,,,/G,,,/A,,,/G,,,/A,,,/A,,/A,,,/G,,,/ | %182
 A,,,/=G,,,/A,,,/A,,/A,,,/G,,,/A,,,/G,,,/A,,,/A,,/A,,,/G,,,/ | %183
 A,,,/=G,,,/A,,,/A,,/A,,,/G,,,/A,,,/G,,,/A,,,/A,,/A,,,/G,,,/ | %184
 A,,,/=G,,,/A,,,/A,,/A,,,/G,,,/A,,,/G,,,/A,,,/A,,/A,,,/G,,,/ | %185
 A,,,/=G,,,/A,,,/A,,/A,,,/G,,,/A,,,/G,,,/A,,,/A,,/A,,,/G,,,/ | %186
 A,,,/=G,,,/A,,,/A,,/A,,,/G,,,/!mf!A,,,/G,,,/A,,,/A,,/=G,,/A,,/ | x6 | x6 | x6 | x6 | x6 | %192
 [A,,,A,,][=C,,=C,]/[B,,,B,,]/[C,,C,]/[A,,,A,,]/ x [E,,E,]/ [E,,E,][F,,F,]/ | x4 x/ G,3/2 | %194
 x3 G,3/2 x/ x | A,,,/A,,/__E,/!>![E,G,_CG] x/ G,3/2 [E,G,C]/A,,/A,,/- | %196
 x3 [B,,B,]/[C,C]/[A,,A,]/[E,E][F,F]/ | %197
 [E,E]/[D,D]/[C,C]/[B,,B,]/[C,C]/[A,,A,]/ x x/ !^![__B,,,__B,,]/[_C,,_C,]/[A,,,A,,]/ | x6 | x6 | %200
 x6 | x6 | !>![D,F,C]6 | !>![D,G,B,]6 | !>![D,=E,B,]6 | !>![D,F,B,]6 | !>![D,=G,B,E]6[K:treble] | %207
[K:bass] !>![D,_G,B,F]6[K:treble] |[K:bass] !>![D,=G,B,E]6[K:treble] | %209
[K:bass] !>![D,_G,B,F]6[K:treble] ||[K:G][K:bass] !>![B,,F,A,^D]6[K:treble] | %211
[K:bass] x3/2[K:treble] x9/2 |[K:bass] !>![B,,F,A,^D]6[K:treble] | %213
[K:bass] x3/2[K:treble] x2[K:bass] x5/2 | x6 | x6 | x6 | x6 ||[K:Db] x6 | x6 | %220
 [B,D]/G,/A,,/- !^![A,,,A,,]/[K:treble] x4 |[K:bass] [A,D]/F,/A,,/- !^![A,,,A,,]/ x4 | %222
 x3/4 D,3/4x3/4D,,3/4 x3/4 !^!D,3/4x3/4D,,3/4 | x3/4 D,3/4x3/4D,,3/4x3/4D,3/4- D,3/2 || %224
[M:6/16] x3/4 D,3/4x3/4D,,3/4 ||[K:E] x3/4 C,3/4x3/4C,,3/4 || %226
[M:12/16] x3/4 B,,,3/4x3/4B,,3/4x3/4E,3/4[K:treble] x3/2 |[K:bass] x3/2[K:treble] x9/2 | %228
[K:bass] x3/2[K:treble] x9/2 | x6 | x6 |[K:bass] x3/4 E,3/4x3/4E,,3/4 x3/4 !^!E,3/4x3/4E,,3/4 | %232
 x3/4 E,3/4x3/4E,,3/4x3/4E,3/4- E,3/2 | x3/4 E,3/4x3/4E,,3/4 x3/4 !^!E,3/4x3/4E,,3/4 | %234
 x3/4 E,3/4x3/4E,,3/4x3/4E,3/4[K:treble] x3/2 || %235
[K:Db][K:bass] D,,/__B,,/D,,/B,,/D,,/B,,/ D,,/A,,/D,/A,/D,/A,,/ | x6 | x6 | x6 | %239
 D,,/D,/__B,/__B,,/G,/G,,/ D,,/D,/__E/__E,/G/G,/ | D,,/D,/_C/_C,/A,/A,,/ D,,/D,/D/D,/F/F,/ | %241
 __B,/D/G,/ [D,,D,]3/2 _C/__E/G,/ [D,,D,]3/2 | %242
[K:treble] __E/G/A,/[K:bass] [D,,D,]3/2[K:treble] _E/G/A,/[K:bass] [D,,D,]3/2 | %243
[M:2/4] x [D,A,]2 [D,A,] | x4 | x4 | x4 | x4 | x4 | x4 | x4 | x4 | x4 | x2[K:treble] x2 | x4 | x4 | %256
 x[K:bass] x3 | x4 | x4 | x4 | x4 | x4 | x4 | x4 | x4 | x4 | x4 | x4 | x4 | x2[K:treble] x2 | x4 | %271
[K:bass] A,,, x x2 | x2 x3/2 G,,,/ |!>!!^!F,,, x x2 | x2 x x/ __B,,,/ | !>!!^!A,,, x x2 | %276
 x2 x3/2 G,,/ |!>!!^!F,, x x2 | x2 x x/ __B,,/ | !>!!^!A,, x[K:treble] x2 | %280
[K:bass] x2[K:treble] x2 | x4 | x4 ||[K:bass] x4 | x4 | x4 | x4 | x4 | x4 | x4 | x2 x [D,,-D,] | %291
 D,, x G,/G,/ x | x4 | x4 | x4 | x5/2[K:treble] x3/2 |[K:bass] x D,/ x/ x2[K:treble] | %297
 x[K:bass] D,/ x/ x2[K:treble] | x[K:bass] D,/ x/ x2[K:treble] || %299
[K:D][K:bass] x ^G,/ x/ G,/ x/ G,/ x/ | F,/ x/ F,/ x/ F,/ x/ F,/ x/ | E,/ x E,/E,/ x E,/ | %302
E,/ x E,/E,/ x3/2 | x ^G,/ x/ G,/ x/ G,/ x/ | F,/ x/ F,/ x/ F,/ x/ F,/ x/ | E,/ x E,/E,/ x E,/ | %306
E,/ x E,/D,/ x3/2 | x x B,/B,/ x | x4 | x x[K:treble] E/E/ x | x4 | %311
[K:bass] x ^C,/ x/ x2[K:treble] |[K:bass] x C,/ x/ x2[K:treble] | x[K:bass] C,/ x/ x2[K:treble] || %314
[K:Db][K:bass] x D,/ x/ x2[K:treble] |[K:bass]!8vb(! x!8vb)! x3 | x4 |!8vb(! x!8vb)! x3 | x4 | %319
!8vb(! x!8vb)! x3 | x4 | x4 | x4 | =G,,/A,,/_G,,/F,,/ =E,,/F,,/_E,,/D,,/ | D,, x x2 | D,, x D,, x | %326
 D,, x x2 | D,, x D,, x | D,, x x2 | x4 | x4 | x2 x x/ D,,/- | D,, x x2 | x4 | %334
 x x/[I:staff -1] [=E=G]/[I:staff +1]x/[I:staff -1][CE]/[I:staff +1]x/[=G,B,]/ | %335
x/[=E,=G,]/x/[C,E,]/x/[=G,,B,,]/x/[=E,,G,,]/ |x/[D,,,D,,]/ x/ [C,,C,]/x/[_C,,_C,]/x/[B,,,B,,]/ | %337
x/[__B,,,__B,,]/x/[A,,,A,,]/x/[B,,,B,,]/x/[_B,,,_B,,]/ | %338
 x/ [__B,,,__B,,]/x/[A,,,A,,]/x/[=G,,,=G,,]/x/[_G,,,_G,,]/ | %339
x/[F,,,F,,]/x/[_F,,,_F,,]/x/[E,,,E,,]/x/[__E,,,__E,,]/ | [D,,,D,,] x x2 | x2{/G,,-} G,, z | %342
{/[D,,D,]-} [D,,D,] x x2 |[K:treble] z x x2 |[K:bass] x4 | x4 |] %346
V:5
 x6 | x6 | x6 | x6 | x6 | x6 | x6 | x6 | x6 | x6 | x6 | x6 | x6 | x6 | x6 | x6 | x6 | x6 | x6 | %19
 x6 | x6 | x6 | x6 | x6 | z3/2 [D,,A,,]3 x3/2 | x6 |[K:treble] x3/2 [D,A,]3 x3/2 | x6 | %28
[K:bass] x6 | x6 ||[K:E][K:treble] x6 | x6 |[K:bass] x3/2[K:treble] x3/2[K:bass] x3 | %33
 x3/2[K:treble] x3/2[K:bass] x3 | x3/2[K:treble] x9/2 |[K:bass] x3/2[K:treble] x9/2 |[K:bass] x6 | %37
 x3[K:treble] x3 | x6 | x6 | x6 | x6 | x6 | x6 ||[K:Db][K:bass] x6 | x6 | x6 | x6 | x6 | x6 | x6 | %51
 x6 | x6 | x6 | x6 | x6 | x6 | x6 | x6 | x6 | x3/2[K:treble] x9/2 |[K:bass] x3/2[K:treble] x9/2 | %62
 x6 | x6 |[K:bass] x6 | x6 | x6 | x9/2[K:treble] x3/2 |[K:bass] x6 | x6 | x6 | x6 | x6 | x6 | x6 | %75
 x6 ||[K:A] x6 | x6 | x6 | x6 | x6 | x6 ||[M:3/8][K:treble] x3 ||[K:Db] x3 ||[M:12/16] x6 | %85
 x3[K:bass] x3 | x6 | x6 || x6 | x6 | x6 | x/ =A,,,/=A,,/ ^C,/=G,/=A,/ x3 ||[K:D][M:6/8] x6 | x6 | %94
 x6 | x6 | x6 | x6 | x6 | x6 | x2[K:treble] x4 | x5[K:bass] x | x2[K:treble] x4 | x5[K:bass] x | %104
 x2[K:treble] x4 |[K:bass] x6 | x6 | x6 | x6 | x6 | x6 | x6 | x6 | x6 | x6 | x6 | x6 | x6 | x6 | %119
 x6 | x6 | x6 | x6 | x6 | x6 | x6 | x6 | x6 | x6 | x6 | x6 | x6 | x6 | x6 | x6 | x6 | x6 | %137
 x[K:treble] x5 |[K:bass] x6 | x6 | x6 | x6 | x6 | x6 | x6 | x6 | x6 | x6 | x6 | x6 | x6 || %151
[K:Gb] x6 | x6 | x6 | x[K:treble] x5 ||[K:Bb][M:12/16][K:bass] x3/2[K:treble] x9/2 |[K:bass] x6 | %157
 x6 | x6 |[K:treble] x6 | x6 |[K:bass] x6 | x6 |[K:treble] x6 | x6 || %165
[K:D][K:bass] x3/2[K:treble] x9/2 |[K:bass] x3/2[K:treble] x9/2 | x6 | x6 |[K:bass] x6 | x6 | x6 | %172
 x6 |[K:treble] x6 |[K:bass] x6 |[K:treble] x6 ||[K:Db][K:bass] x6 |[K:treble] x6 | x6 | %179
[K:bass] x6 | x6 | x6 | x6 | x6 | x6 | x6 | x6 | x6 | x6 | x6 | x6 | x6 | x6 | x6 | x6 | x6 | x6 | %197
 x6 | x6 | x6 | x6 | x6 | x6 | x6 | x6 | x6 | x[K:treble] x5 |[K:bass] x[K:treble] x5 | %208
[K:bass] x[K:treble] x5 |[K:bass] x[K:treble] x5 ||[K:G][K:bass] x[K:treble] x5 | %211
[K:bass] x3/2[K:treble] x9/2 |[K:bass] x[K:treble] x5 |[K:bass] x3/2[K:treble] x2[K:bass] x5/2 | %214
 x6 | x6 | x6 | x6 ||[K:Db] x6 | x6 | x2[K:treble] x4 |[K:bass] x6 | x6 | x6 ||[M:6/16] x3 || %225
[K:E] x3 ||[M:12/16] x9/2[K:treble] x3/2 |[K:bass] x3/2[K:treble] x9/2 | %228
[K:bass] x3/2[K:treble] x9/2 | x6 | x6 |[K:bass] x6 | x6 | x6 | x9/2[K:treble] x3/2 || %235
[K:Db][K:bass] x6 | x6 | x6 | x6 | x6 | x6 | x6 | %242
[K:treble] x3/2[K:bass] x3/2[K:treble] x3/2[K:bass] x3/2 |[M:2/4] x4 | x4 | x4 | x4 | x4 | x4 | %249
 x4 | x4 | x4 | x4 | x2[K:treble] x2 | x4 | x4 | x[K:bass] x3 | x4 | x4 | x4 | x4 | x4 | x4 | x4 | %264
 x4 | x4 | x4 | x4 | x4 | x2[K:treble] x2 | x4 |[K:bass] x4 | x4 | x4 | x4 | x4 | x4 | x4 | x4 | %279
 x2[K:treble] x2 |[K:bass] x2[K:treble] x2 | x4 | x4 ||[K:bass] x4 | x4 | x4 | x4 | x4 | x4 | x4 | %290
 x4 | x4 | x4 | x4 | x4 | x5/2[K:treble] x3/2 |[K:bass] x5/2[K:treble] x3/2 | %297
 x/[K:bass] x2[K:treble] x3/2 | x/[K:bass] x2[K:treble] x3/2 ||[K:D][K:bass] x4 | x4 | x4 | x4 | %303
 x4 | x4 | x4 | x4 | x4 | x4 | x2[K:treble] x2 | x4 |[K:bass] x5/2[K:treble] x3/2 | %312
[K:bass] x5/2[K:treble] x3/2 | x/[K:bass] x2[K:treble] x3/2 ||[K:Db][K:bass] x5/2[K:treble] x3/2 | %315
[K:bass]!8vb(! x!8vb)! x3 | x4 |!8vb(! x!8vb)! x3 | x4 |!8vb(! x!8vb)! x3 | x4 | x4 | x4 | x4 | %324
 x4 | x4 | x4 | x4 | x4 | x4 | x4 | x4 | x4 | x4 | x4 | x4 | x4 | x4 | x4 | x4 | x4 | x4 | x4 | %343
[K:treble] x4 |[K:bass] x4 | x4 |] %346
V:6
 x6 | x6 | x6 | x6 | x6 | x6 | x6 | x6 | x6 | x6 | x6 | x6 | x6 | x6 | x6 | x6 | x6 | x6 | x6 | %19
 x6 | x6 | x6 | x6 | x6 | x6 | x6 | x6 | x6 | x6 | x6 ||[K:E] x6 | x6 | x6 | x6 | x6 | x6 | x6 | %37
 x6 | x6 | x6 | x6 | x5!8va(! x | x11/2!8va)! x/ | x6 ||[K:Db] x6 | x6 | x6 | x6 | x6 | x6 | x6 | %51
 x6 | x6 | x6 | x6 | x6 | x6 | x6 | x6 | x6 | x6 | x6 | x6 | x6 | x6 | x6 |!8va(! x6 | x6!8va)! | %68
[K:bass] x6 | x6 | x3[K:treble] x3 | x6 | x6 | x6 | x6 | x6 ||[K:A] F x x4 | E x x4 | x6 | x6 | %80
!8va(! f x x4 | e x x4!8va)! ||[M:3/8] x3 ||[K:Db] x3 ||[M:12/16] x6 | x6 | x6 | x6 || x6 | x6 | %90
 ^G,6 | x6 ||[K:D][M:6/8] x6 | x6 | x6 | x6 | x6 | x6 | x6 | x6 | x6 | x6 | x6 | x6 | x6 | x6 | %106
 x6 | x6 | x6 | x6 | x6 | x6 | x6 | x6 | x6 | x6 | x6 | x6 | x6 | x6 | x6 | x6 | x6 | x6 | x6 | %125
 x6 | x6 | x6 | x6 | x6 | x6 | x6 | x6 | x6 | x6 | x6 | x6 | x6 | x6 | x6 | x6 | x6 | x6 | %143
 x5!8va(! x | x!8va)! x5 | x5!8va(! x | x6 | x6!8va)! | x4!8va(! x2 | x6!8va)! | x6 || %151
[K:Gb] x!8va(! x5!8va)! | x6 | x6 |!8va(! x!8va)! x5 ||[K:Bb][M:12/16]!8va(! x3!8va)! x3 | %156
[K:bass] x5[K:treble] x | x6 | x6 | x6 | x6 | x6 | x3/2 _c>[I:staff +1]B[I:staff -1] x/ x2 | x6 | %164
 x3/2 =g>[I:staff +1]^f[I:staff -1] x/ x2 ||[K:D] x6 | x6 | x6 | x6 | x6 | x6 | x6 | x6 | x6 | x6 | %175
 x6 ||[K:Db] x6 | x6 | x6 | x4[K:bass] x2 | x6 | x6 | x6 | x6 | x6 | x6 | x3[K:treble] x3 | x6 | %188
 x6 | x6 | x6 | x6 | x6 | x!8va(! x3/2!8va)! x7/2 | x6 | x6 | x6 |!8va(! x5/2!8va)! x7/2 | x6 | %199
 x6 | x6 | x6 | x6 | x6 | x6 | x6 | x6 | x6 | x6 | x6 ||[K:G]!8va(! x6!8va)! | x6 | x6 | x6 | x6 | %215
 x6 | x6 | x6 ||[K:Db] x6 | x6 | x6 | x6 | x6 | x6 ||[M:6/16] x/!8va(! x5/2 ||[K:E] x3 || %226
[M:12/16] x6!8va)! | x6 | x6 | x3/2!8va(! x/!8va)! x4 | x3/2!8va(! x/!8va)! x4 | x6 | x6 | %233
!8va(! x6 | x6!8va)! ||[K:Db] x/[K:bass] x11/2 | x6 | x3[K:treble] x3 | x6 | x6 | x6 | x6 | %242
 x3!8va(! x3!8va)! |[M:2/4]!8va(! x!8va)! x3 | x4 | x4 | x4 | x4 | x4 | x4 | x2!8va(! x2!8va)! | %251
 x4 | x4 | x4 | x4 | x4 | x4 | x4 | x179/60!8va(! x63/64!8va)! |!8va(! x!8va)! x3 | x4 | x4 | x4 | %263
 x4 | x4 | x4 | x!8va(! x3 | x!8va)! x3 | x4 | x4 | x4 |[K:bass] x4 | x4 | x5/2[K:treble] x3/2 | %274
 x4 | x4 | x4 | x4 | x4 | x4 | x4 | x4 |!8va(! x4!8va)! ||!8va(! x!8va)! x3 | x4 | x4 | x4 | x4 | %288
 x4 | x4 | x4 | x4 | x4 | x4 | x4 | x4 | x4 | x4 | x4 ||[K:D] x4 | x4 | x4 | x4 | x4 | x4 | x4 | %306
 x4 | x4 | x4 | x4 | x4 | x4 | x4 | x4 ||[K:Db] x4 | x4 | x4 | x4 | x4 | x4 | x4 | x4 | x4 | x4 | %324
 x4 | x4 | x4 | x4 | x4 | x4 | x4 | x4 | x!8va(! x3!8va)! | x4 | x4 | x4 | x4 | x4 | x4 | x4 | x4 | %341
 x2!8va(! x2 | x4 | x!8va)! x3 | x4 | x4 |] %346

